( PCB drills - Additional Output Connector )
( Generated by hand )
G17
G21
G54
G90
M03 S1000
G00 Z3.000	
(top pin)
G00  X0 Y2.54
G01 F100 Z-1.650
G00 Z3.000
(middle pin)
G00  X0 Y0
G01 F100 Z-1.650
G00 Z3.000
(bottom pin)
G00  X0 Y-2.54
G01 F100 Z-1.650
G00 Z3.000
G00 X0 Y0
M05
M30
%
