( PCB Contour - Additional Output Connector)
( Generated by hand)
G17
G21
G54
G90
M03 S1000
G00 Z3.000	
(top pin)
G90
G00  X0 Y2.54
G91 
G00 X-1.1 Y-1.1
G90 
G01 F100 Z-0.200
G91
G01 F100 X5 Y0
G01 F100 X0 Y4
G01 F100 X-5 Y0
G01 F100 X0 Y-4
G90
G00 Z3.000
(middle pin)
G90 
G00  X0 Y0
G91 
G00 X-1.1 Y-1.1
G90 
G01 F100 Z-0.200
G91
G01 F100 X5 Y0.0
G01 F100 X0.0 Y2.2
G01 F100 X-5 Y0.0
G01 F100 X0.0 Y-2.2
G90
G00 Z3.000
(bottom pin)
G90
G00  X0 Y-2.54
G91 
G00 X-1.1 Y1.1
G90 
G01 F100 Z-0.200
G91
G01 F100 X5 Y0
G01 F100 X0 Y-4
G01 F100 X-5 Y0
G01 F100 X0 Y4
G90
G00 Z3.000
G00 X0 Y0
M05
M30
%
