( PCB Contour - pass 1)
( Generated by Carbide Copper )
( Material Size )
( X= 100.000, Y= 70.000, Z= 1.450 )
()
G17
G21
G54
G90
M03 S1000
G00 Z3.000
G00  X92.686 Y68.138
G01 F100 Z0
G01 F100 Z-0.200
G01 F100 X91.630 Y67.913
G01 F100 X90.643 Y67.474
G01 F100 X89.769 Y66.839
G01 F100 X89.047 Y66.037
G01 F100 X88.507 Y65.101
G01 F100 X88.173 Y64.074
G01 F100 X88.060 Y63.000
G01 F100 X88.173 Y61.926
G01 F100 X88.507 Y60.899
G01 F100 X89.047 Y59.963
G01 F100 X89.769 Y59.161
G01 F100 X90.643 Y58.526
G01 F100 X91.630 Y58.087
G01 F100 X92.686 Y57.862
G01 F100 X93.766 Y57.862
G01 F100 X94.823 Y58.087
G01 F100 X95.809 Y58.526
G01 F100 X96.683 Y59.161
G01 F100 X97.406 Y59.963
G01 F100 X97.946 Y60.899
G01 F100 X98.280 Y61.926
G01 F100 X98.393 Y63.000
G01 F100 X98.280 Y64.074
G01 F100 X97.946 Y65.101
G01 F100 X97.406 Y66.037
G01 F100 X96.683 Y66.839
G01 F100 X95.809 Y67.474
G01 F100 X94.823 Y67.913
G01 F100 X93.766 Y68.138
G01 F100 X92.686 Y68.138
G00 Z3.000
G00  X6.686 Y68.138
G01 F100 Z0
G01 F100 Z-0.200
G01 F100 X5.630 Y67.913
G01 F100 X4.643 Y67.474
G01 F100 X3.769 Y66.839
G01 F100 X3.046 Y66.037
G01 F100 X2.506 Y65.101
G01 F100 X2.173 Y64.074
G01 F100 X2.060 Y63.000
G01 F100 X2.173 Y61.926
G01 F100 X2.506 Y60.899
G01 F100 X3.046 Y59.963
G01 F100 X3.769 Y59.161
G01 F100 X4.643 Y58.526
G01 F100 X5.630 Y58.087
G01 F100 X6.686 Y57.862
G01 F100 X7.766 Y57.862
G01 F100 X8.823 Y58.087
G01 F100 X9.809 Y58.526
G01 F100 X10.683 Y59.161
G01 F100 X11.406 Y59.963
G01 F100 X11.946 Y60.899
G01 F100 X12.280 Y61.926
G01 F100 X12.393 Y63.000
G01 F100 X12.280 Y64.074
G01 F100 X11.946 Y65.101
G01 F100 X11.406 Y66.037
G01 F100 X10.683 Y66.839
G01 F100 X9.809 Y67.474
G01 F100 X8.823 Y67.913
G01 F100 X7.766 Y68.138
G01 F100 X6.686 Y68.138
G00 Z3.000
G00  X20.552 Y67.357
G01 F100 Z0
G01 F100 Z-0.200
G01 F100 X20.211 Y67.285
G01 F100 X19.893 Y67.143
G01 F100 X19.611 Y66.938
G01 F100 X19.378 Y66.680
G01 F100 X19.204 Y66.378
G01 F100 X19.096 Y66.047
G01 F100 X19.061 Y65.709
G01 F100 X19.061 Y62.291
G01 F100 X19.096 Y61.954
G01 F100 X19.204 Y61.622
G01 F100 X19.378 Y61.321
G01 F100 X19.611 Y61.062
G01 F100 X19.893 Y60.857
G01 F100 X20.211 Y60.715
G01 F100 X20.552 Y60.643
G01 F100 X25.311 Y60.643
G01 F100 X34.041 Y51.913
G01 F100 X34.041 Y51.758
G01 F100 X34.238 Y51.728
G01 F100 X34.473 Y51.557
G01 F100 X34.791 Y51.415
G01 F100 X35.132 Y51.343
G01 F100 X35.480 Y51.343
G01 F100 X35.821 Y51.415
G01 F100 X36.140 Y51.557
G01 F100 X36.378 Y51.735
G01 F100 X36.554 Y51.735
G01 F100 X36.566 Y51.840
G01 F100 X40.240 Y51.840
G01 F100 X41.369 Y50.711
G01 F100 X41.563 Y50.570
G01 F100 X41.786 Y50.471
G01 F100 X42.024 Y50.420
G01 F100 X44.948 Y50.420
G01 F100 X45.187 Y50.471
G01 F100 X45.409 Y50.570
G01 F100 X45.607 Y50.713
G01 F100 X45.770 Y50.894
G01 F100 X45.892 Y51.106
G01 F100 X45.922 Y51.199
G01 F100 X45.938 Y51.234
G01 F100 X45.946 Y51.272
G01 F100 X45.967 Y51.338
G01 F100 X45.974 Y51.407
G01 F100 X45.986 Y51.463
G01 F100 X45.986 Y51.522
G01 F100 X45.993 Y51.580
G01 F100 X45.986 Y51.638
G01 F100 X45.986 Y51.697
G01 F100 X45.974 Y51.754
G01 F100 X45.967 Y51.823
G01 F100 X45.946 Y51.888
G01 F100 X45.938 Y51.926
G01 F100 X45.922 Y51.961
G01 F100 X45.892 Y52.054
G01 F100 X45.770 Y52.266
G01 F100 X45.607 Y52.447
G01 F100 X45.409 Y52.590
G01 F100 X45.187 Y52.689
G01 F100 X44.948 Y52.740
G01 F100 X42.632 Y52.740
G01 F100 X41.503 Y53.869
G01 F100 X41.309 Y54.010
G01 F100 X41.087 Y54.109
G01 F100 X40.848 Y54.160
G01 F100 X36.572 Y54.173
G01 F100 X36.572 Y54.242
G01 F100 X36.389 Y54.270
G01 F100 X27.118 Y63.541
G01 F100 X26.839 Y63.743
G01 F100 X26.521 Y63.885
G01 F100 X26.180 Y63.957
G01 F100 X22.392 Y63.957
G01 F100 X22.392 Y65.709
G01 F100 X22.356 Y66.047
G01 F100 X22.248 Y66.378
G01 F100 X22.074 Y66.680
G01 F100 X21.841 Y66.938
G01 F100 X21.559 Y67.143
G01 F100 X21.241 Y67.285
G01 F100 X20.900 Y67.357
G01 F100 X20.552 Y67.357
G00 Z3.000
G00  X34.052 Y67.357
G01 F100 Z0
G01 F100 Z-0.200
G01 F100 X33.711 Y67.285
G01 F100 X33.393 Y67.143
G01 F100 X33.111 Y66.938
G01 F100 X32.878 Y66.680
G01 F100 X32.704 Y66.378
G01 F100 X32.596 Y66.047
G01 F100 X32.561 Y65.709
G01 F100 X32.561 Y61.991
G01 F100 X32.596 Y61.654
G01 F100 X32.704 Y61.322
G01 F100 X32.878 Y61.021
G01 F100 X33.102 Y60.771
G01 F100 X37.115 Y56.759
G01 F100 X37.393 Y56.557
G01 F100 X37.711 Y56.415
G01 F100 X38.052 Y56.343
G01 F100 X45.531 Y56.343
G01 F100 X53.906 Y47.968
G01 F100 X54.184 Y47.766
G01 F100 X54.502 Y47.624
G01 F100 X54.843 Y47.552
G01 F100 X65.400 Y47.552
G01 F100 X65.741 Y47.624
G01 F100 X66.059 Y47.766
G01 F100 X66.166 Y47.844
G01 F100 X66.585 Y47.844
G01 F100 X66.603 Y48.280
G01 F100 X66.749 Y48.531
G01 F100 X66.856 Y48.863
G01 F100 X66.893 Y49.209
G01 F100 X66.856 Y49.556
G01 F100 X66.748 Y49.888
G01 F100 X66.592 Y50.151
G01 F100 X66.592 Y50.575
G01 F100 X66.166 Y50.575
G01 F100 X66.059 Y50.652
G01 F100 X65.741 Y50.794
G01 F100 X65.400 Y50.866
G01 F100 X61.642 Y50.866
G01 F100 X61.642 Y65.009
G01 F100 X61.606 Y65.347
G01 F100 X61.498 Y65.678
G01 F100 X61.324 Y65.980
G01 F100 X61.091 Y66.238
G01 F100 X60.809 Y66.443
G01 F100 X60.491 Y66.585
G01 F100 X60.150 Y66.657
G01 F100 X59.802 Y66.657
G01 F100 X59.461 Y66.585
G01 F100 X59.143 Y66.443
G01 F100 X58.861 Y66.238
G01 F100 X58.628 Y65.980
G01 F100 X58.454 Y65.678
G01 F100 X58.346 Y65.347
G01 F100 X58.311 Y65.009
G01 F100 X58.311 Y50.866
G01 F100 X55.712 Y50.866
G01 F100 X47.338 Y59.241
G01 F100 X47.059 Y59.443
G01 F100 X46.741 Y59.585
G01 F100 X46.400 Y59.657
G01 F100 X38.921 Y59.657
G01 F100 X35.892 Y62.687
G01 F100 X35.892 Y65.709
G01 F100 X35.856 Y66.047
G01 F100 X35.748 Y66.378
G01 F100 X35.574 Y66.680
G01 F100 X35.341 Y66.938
G01 F100 X35.059 Y67.143
G01 F100 X34.741 Y67.285
G01 F100 X34.400 Y67.357
G01 F100 X34.052 Y67.357
G00 Z3.000
G00  X39.802 Y66.657
G01 F100 Z0
G01 F100 Z-0.200
G01 F100 X39.461 Y66.585
G01 F100 X39.143 Y66.443
G01 F100 X38.861 Y66.238
G01 F100 X38.628 Y65.980
G01 F100 X38.454 Y65.678
G01 F100 X38.346 Y65.347
G01 F100 X38.310 Y65.000
G01 F100 X38.346 Y64.654
G01 F100 X38.454 Y64.322
G01 F100 X38.628 Y64.020
G01 F100 X38.861 Y63.762
G01 F100 X39.143 Y63.557
G01 F100 X39.461 Y63.415
G01 F100 X39.802 Y63.343
G01 F100 X47.281 Y63.343
G01 F100 X53.865 Y56.759
G01 F100 X54.143 Y56.557
G01 F100 X54.461 Y56.415
G01 F100 X54.802 Y56.343
G01 F100 X55.150 Y56.343
G01 F100 X55.491 Y56.415
G01 F100 X55.809 Y56.557
G01 F100 X56.091 Y56.762
G01 F100 X56.324 Y57.021
G01 F100 X56.498 Y57.322
G01 F100 X56.606 Y57.654
G01 F100 X56.643 Y58.000
G01 F100 X56.606 Y58.347
G01 F100 X56.498 Y58.678
G01 F100 X56.324 Y58.980
G01 F100 X56.100 Y59.229
G01 F100 X49.088 Y66.241
G01 F100 X48.809 Y66.443
G01 F100 X48.491 Y66.585
G01 F100 X48.150 Y66.657
G01 F100 X39.802 Y66.657
G00 Z3.000
G00  X63.802 Y66.657
G01 F100 Z0
G01 F100 Z-0.200
G01 F100 X63.461 Y66.585
G01 F100 X63.143 Y66.443
G01 F100 X62.861 Y66.238
G01 F100 X62.628 Y65.980
G01 F100 X62.454 Y65.678
G01 F100 X62.346 Y65.347
G01 F100 X62.310 Y65.000
G01 F100 X62.346 Y64.654
G01 F100 X62.454 Y64.322
G01 F100 X62.628 Y64.020
G01 F100 X62.861 Y63.762
G01 F100 X63.143 Y63.557
G01 F100 X63.461 Y63.415
G01 F100 X63.802 Y63.343
G01 F100 X67.281 Y63.343
G01 F100 X73.865 Y56.759
G01 F100 X74.143 Y56.557
G01 F100 X74.461 Y56.415
G01 F100 X74.802 Y56.343
G01 F100 X75.150 Y56.343
G01 F100 X75.491 Y56.415
G01 F100 X75.809 Y56.557
G01 F100 X76.091 Y56.762
G01 F100 X76.324 Y57.021
G01 F100 X76.499 Y57.322
G01 F100 X76.606 Y57.654
G01 F100 X76.643 Y58.000
G01 F100 X76.606 Y58.347
G01 F100 X76.499 Y58.678
G01 F100 X76.324 Y58.980
G01 F100 X76.100 Y59.229
G01 F100 X69.088 Y66.241
G01 F100 X68.809 Y66.443
G01 F100 X68.491 Y66.585
G01 F100 X68.150 Y66.657
G01 F100 X63.802 Y66.657
G00 Z3.000
G00  X83.802 Y66.657
G01 F100 Z0
G01 F100 Z-0.200
G01 F100 X83.461 Y66.585
G01 F100 X83.143 Y66.443
G01 F100 X82.865 Y66.241
G01 F100 X78.102 Y61.479
G01 F100 X77.878 Y61.230
G01 F100 X77.704 Y60.928
G01 F100 X77.596 Y60.597
G01 F100 X77.561 Y60.259
G01 F100 X77.561 Y59.571
G01 F100 X77.596 Y59.233
G01 F100 X77.704 Y58.902
G01 F100 X77.878 Y58.601
G01 F100 X77.961 Y58.509
G01 F100 X77.961 Y58.338
G01 F100 X78.158 Y58.308
G01 F100 X78.393 Y58.137
G01 F100 X78.711 Y57.995
G01 F100 X79.052 Y57.923
G01 F100 X79.400 Y57.923
G01 F100 X79.741 Y57.995
G01 F100 X80.060 Y58.137
G01 F100 X80.298 Y58.315
G01 F100 X80.492 Y58.315
G01 F100 X80.492 Y58.509
G01 F100 X80.574 Y58.601
G01 F100 X80.749 Y58.902
G01 F100 X80.856 Y59.233
G01 F100 X80.891 Y59.562
G01 F100 X85.100 Y63.771
G01 F100 X85.324 Y64.020
G01 F100 X85.499 Y64.322
G01 F100 X85.606 Y64.654
G01 F100 X85.643 Y65.000
G01 F100 X85.606 Y65.347
G01 F100 X85.499 Y65.678
G01 F100 X85.324 Y65.980
G01 F100 X85.091 Y66.238
G01 F100 X84.809 Y66.443
G01 F100 X84.491 Y66.585
G01 F100 X84.150 Y66.657
G01 F100 X83.802 Y66.657
G00 Z3.000
G00  X5.130 Y56.923
G01 F100 Z0
G01 F100 Z-0.200
G01 F100 X4.943 Y56.883
G01 F100 X4.768 Y56.806
G01 F100 X4.613 Y56.693
G01 F100 X4.485 Y56.550
G01 F100 X4.389 Y56.385
G01 F100 X4.330 Y56.202
G01 F100 X4.311 Y56.021
G01 F100 X4.311 Y54.447
G01 F100 X2.654 Y54.447
G01 F100 X2.467 Y54.407
G01 F100 X2.292 Y54.329
G01 F100 X2.137 Y54.217
G01 F100 X2.009 Y54.074
G01 F100 X1.913 Y53.908
G01 F100 X1.854 Y53.726
G01 F100 X1.834 Y53.536
G01 F100 X1.854 Y53.345
G01 F100 X1.913 Y53.163
G01 F100 X2.009 Y52.997
G01 F100 X2.137 Y52.855
G01 F100 X2.292 Y52.742
G01 F100 X2.467 Y52.664
G01 F100 X2.654 Y52.624
G01 F100 X4.311 Y52.624
G01 F100 X4.311 Y51.051
G01 F100 X4.330 Y50.869
G01 F100 X4.389 Y50.687
G01 F100 X4.485 Y50.521
G01 F100 X4.613 Y50.379
G01 F100 X4.768 Y50.266
G01 F100 X4.943 Y50.188
G01 F100 X5.130 Y50.148
G01 F100 X5.322 Y50.148
G01 F100 X5.509 Y50.188
G01 F100 X5.684 Y50.266
G01 F100 X5.839 Y50.379
G01 F100 X5.968 Y50.521
G01 F100 X6.063 Y50.687
G01 F100 X6.123 Y50.869
G01 F100 X6.142 Y51.051
G01 F100 X6.142 Y52.624
G01 F100 X7.798 Y52.624
G01 F100 X7.986 Y52.664
G01 F100 X8.161 Y52.742
G01 F100 X8.316 Y52.855
G01 F100 X8.444 Y52.997
G01 F100 X8.540 Y53.163
G01 F100 X8.599 Y53.345
G01 F100 X8.619 Y53.536
G01 F100 X8.599 Y53.726
G01 F100 X8.540 Y53.908
G01 F100 X8.444 Y54.074
G01 F100 X8.316 Y54.217
G01 F100 X8.161 Y54.329
G01 F100 X7.986 Y54.407
G01 F100 X7.798 Y54.447
G01 F100 X6.142 Y54.447
G01 F100 X6.142 Y56.021
G01 F100 X6.123 Y56.202
G01 F100 X6.063 Y56.385
G01 F100 X5.968 Y56.550
G01 F100 X5.839 Y56.693
G01 F100 X5.684 Y56.806
G01 F100 X5.509 Y56.883
G01 F100 X5.322 Y56.923
G01 F100 X5.130 Y56.923
G00 Z3.000
G00  X92.559 Y55.483
G01 F100 Z0
G01 F100 Z-0.200
G01 F100 X92.372 Y55.443
G01 F100 X92.209 Y55.370
G01 F100 X91.432 Y54.982
G01 F100 X91.283 Y54.874
G01 F100 X90.890 Y54.481
G01 F100 X90.770 Y54.348
G01 F100 X90.675 Y54.182
G01 F100 X90.615 Y54.000
G01 F100 X90.596 Y53.809
G01 F100 X90.615 Y53.619
G01 F100 X90.675 Y53.437
G01 F100 X90.770 Y53.271
G01 F100 X90.899 Y53.129
G01 F100 X91.054 Y53.016
G01 F100 X91.229 Y52.938
G01 F100 X91.416 Y52.898
G01 F100 X91.608 Y52.898
G01 F100 X91.795 Y52.938
G01 F100 X91.970 Y53.016
G01 F100 X92.121 Y53.126
G01 F100 X92.435 Y53.440
G01 F100 X92.655 Y53.549
G01 F100 X93.733 Y53.010
G01 F100 X93.895 Y52.938
G01 F100 X94.083 Y52.898
G01 F100 X94.274 Y52.898
G01 F100 X94.462 Y52.938
G01 F100 X94.624 Y53.010
G01 F100 X95.402 Y53.399
G01 F100 X95.550 Y53.507
G01 F100 X95.943 Y53.900
G01 F100 X96.063 Y54.033
G01 F100 X96.159 Y54.199
G01 F100 X96.218 Y54.381
G01 F100 X96.238 Y54.571
G01 F100 X96.218 Y54.762
G01 F100 X96.159 Y54.944
G01 F100 X96.063 Y55.110
G01 F100 X95.935 Y55.252
G01 F100 X95.780 Y55.365
G01 F100 X95.605 Y55.443
G01 F100 X95.417 Y55.483
G01 F100 X95.226 Y55.483
G01 F100 X95.038 Y55.443
G01 F100 X94.863 Y55.365
G01 F100 X94.712 Y55.255
G01 F100 X94.398 Y54.941
G01 F100 X94.179 Y54.832
G01 F100 X93.101 Y55.371
G01 F100 X92.938 Y55.443
G01 F100 X92.751 Y55.483
G01 F100 X92.559 Y55.483
G00 Z3.000
G00  X25.014 Y54.259
G01 F100 Z0
G01 F100 Z-0.200
G01 F100 X24.755 Y54.204
G01 F100 X24.513 Y54.097
G01 F100 X24.299 Y53.941
G01 F100 X24.122 Y53.744
G01 F100 X23.989 Y53.515
G01 F100 X23.908 Y53.263
G01 F100 X23.880 Y53.000
G01 F100 X23.908 Y52.736
G01 F100 X23.981 Y52.517
G01 F100 X23.981 Y50.173
G01 F100 X17.892 Y50.163
G01 F100 X17.892 Y50.315
G01 F100 X17.992 Y50.315
G01 F100 X17.992 Y52.846
G01 F100 X15.461 Y52.846
G01 F100 X15.461 Y50.315
G01 F100 X15.561 Y50.315
G01 F100 X15.561 Y50.160
G01 F100 X7.604 Y50.160
G01 F100 X7.366 Y50.109
G01 F100 X7.143 Y50.010
G01 F100 X6.949 Y49.869
G01 F100 X4.437 Y47.357
G01 F100 X4.283 Y47.186
G01 F100 X4.161 Y46.974
G01 F100 X4.085 Y46.742
G01 F100 X4.061 Y46.509
G01 F100 X4.061 Y37.516
G01 F100 X4.085 Y37.282
G01 F100 X4.161 Y37.051
G01 F100 X4.211 Y36.964
G01 F100 X4.211 Y36.510
G01 F100 X4.655 Y36.510
G01 F100 X4.866 Y36.416
G01 F100 X5.104 Y36.365
G01 F100 X5.348 Y36.365
G01 F100 X5.587 Y36.416
G01 F100 X5.797 Y36.510
G01 F100 X6.242 Y36.510
G01 F100 X6.242 Y36.964
G01 F100 X6.292 Y37.051
G01 F100 X6.367 Y37.282
G01 F100 X6.392 Y37.516
G01 F100 X6.392 Y46.019
G01 F100 X8.212 Y47.840
G01 F100 X9.561 Y47.840
G01 F100 X9.561 Y46.531
G01 F100 X9.585 Y46.297
G01 F100 X9.661 Y46.066
G01 F100 X9.661 Y46.065
G01 F100 X9.661 Y45.474
G01 F100 X10.267 Y45.474
G01 F100 X10.366 Y45.431
G01 F100 X10.604 Y45.380
G01 F100 X10.848 Y45.380
G01 F100 X11.087 Y45.431
G01 F100 X11.185 Y45.474
G01 F100 X11.792 Y45.474
G01 F100 X11.792 Y46.066
G01 F100 X11.867 Y46.297
G01 F100 X11.892 Y46.531
G01 F100 X11.892 Y47.840
G01 F100 X16.622 Y47.840
G01 F100 X16.835 Y47.841
G01 F100 X24.061 Y47.853
G01 F100 X24.061 Y44.467
G01 F100 X26.392 Y44.467
G01 F100 X26.392 Y47.857
G01 F100 X29.370 Y47.862
G01 F100 X29.456 Y47.880
G01 F100 X33.311 Y47.880
G01 F100 X33.311 Y46.465
G01 F100 X33.261 Y46.465
G01 F100 X33.261 Y44.535
G01 F100 X35.192 Y44.535
G01 F100 X35.192 Y46.465
G01 F100 X35.142 Y46.465
G01 F100 X35.142 Y47.880
G01 F100 X44.948 Y47.880
G01 F100 X45.187 Y47.931
G01 F100 X45.409 Y48.030
G01 F100 X45.607 Y48.173
G01 F100 X45.770 Y48.354
G01 F100 X45.783 Y48.377
G01 F100 X47.909 Y48.377
G01 F100 X48.036 Y48.250
G01 F100 X48.036 Y47.766
G01 F100 X47.836 Y47.766
G01 F100 X47.836 Y46.235
G01 F100 X49.567 Y46.235
G01 F100 X49.567 Y47.766
G01 F100 X49.367 Y47.766
G01 F100 X49.367 Y48.534
G01 F100 X49.353 Y48.663
G01 F100 X49.310 Y48.796
G01 F100 X49.240 Y48.917
G01 F100 X49.156 Y49.011
G01 F100 X48.629 Y49.538
G01 F100 X48.519 Y49.617
G01 F100 X48.392 Y49.674
G01 F100 X48.256 Y49.703
G01 F100 X45.783 Y49.703
G01 F100 X45.770 Y49.726
G01 F100 X45.607 Y49.907
G01 F100 X45.409 Y50.050
G01 F100 X45.187 Y50.149
G01 F100 X44.948 Y50.200
G01 F100 X29.144 Y50.200
G01 F100 X29.058 Y50.182
G01 F100 X26.312 Y50.177
G01 F100 X26.317 Y52.526
G01 F100 X26.385 Y52.737
G01 F100 X26.413 Y53.000
G01 F100 X26.385 Y53.263
G01 F100 X26.303 Y53.515
G01 F100 X26.171 Y53.744
G01 F100 X25.994 Y53.941
G01 F100 X25.779 Y54.097
G01 F100 X25.538 Y54.204
G01 F100 X25.279 Y54.259
G01 F100 X25.014 Y54.259
G00 Z3.000
G00  X79.052 Y51.077
G01 F100 Z0
G01 F100 Z-0.200
G01 F100 X78.711 Y51.005
G01 F100 X78.393 Y50.863
G01 F100 X78.111 Y50.658
G01 F100 X77.878 Y50.400
G01 F100 X77.704 Y50.098
G01 F100 X77.596 Y49.767
G01 F100 X77.561 Y49.429
G01 F100 X77.561 Y39.991
G01 F100 X77.596 Y39.654
G01 F100 X77.704 Y39.322
G01 F100 X77.878 Y39.020
G01 F100 X77.961 Y38.929
G01 F100 X77.961 Y38.758
G01 F100 X78.158 Y38.728
G01 F100 X78.393 Y38.557
G01 F100 X78.711 Y38.415
G01 F100 X79.052 Y38.343
G01 F100 X79.400 Y38.343
G01 F100 X79.741 Y38.415
G01 F100 X80.060 Y38.557
G01 F100 X80.298 Y38.735
G01 F100 X80.492 Y38.735
G01 F100 X80.492 Y38.929
G01 F100 X80.574 Y39.020
G01 F100 X80.749 Y39.322
G01 F100 X80.856 Y39.654
G01 F100 X80.892 Y39.991
G01 F100 X80.892 Y42.313
G01 F100 X81.424 Y42.846
G01 F100 X88.061 Y42.846
G01 F100 X88.061 Y39.834
G01 F100 X98.392 Y39.834
G01 F100 X98.392 Y50.166
G01 F100 X88.061 Y50.166
G01 F100 X88.061 Y47.154
G01 F100 X81.424 Y47.154
G01 F100 X80.892 Y47.687
G01 F100 X80.892 Y49.429
G01 F100 X80.856 Y49.767
G01 F100 X80.749 Y50.098
G01 F100 X80.574 Y50.400
G01 F100 X80.341 Y50.658
G01 F100 X80.059 Y50.863
G01 F100 X79.741 Y51.005
G01 F100 X79.400 Y51.077
G01 F100 X79.052 Y51.077
G00 Z3.000
G00  X43.661 Y47.618
G01 F100 Z0
G01 F100 Z-0.200
G01 F100 X43.661 Y45.382
G01 F100 X44.161 Y45.382
G01 F100 X44.161 Y43.891
G01 F100 X44.174 Y43.762
G01 F100 X44.217 Y43.629
G01 F100 X44.287 Y43.508
G01 F100 X44.372 Y43.415
G01 F100 X44.809 Y42.977
G01 F100 X44.918 Y42.898
G01 F100 X45.045 Y42.841
G01 F100 X45.181 Y42.812
G01 F100 X48.036 Y42.812
G01 F100 X48.036 Y42.766
G01 F100 X47.836 Y42.766
G01 F100 X47.836 Y41.235
G01 F100 X49.567 Y41.235
G01 F100 X49.567 Y42.766
G01 F100 X49.367 Y42.766
G01 F100 X49.367 Y44.235
G01 F100 X49.567 Y44.235
G01 F100 X49.567 Y45.766
G01 F100 X47.836 Y45.766
G01 F100 X47.836 Y44.235
G01 F100 X48.036 Y44.235
G01 F100 X48.036 Y44.138
G01 F100 X45.529 Y44.138
G01 F100 X45.492 Y44.175
G01 F100 X45.492 Y45.382
G01 F100 X45.992 Y45.382
G01 F100 X45.992 Y47.618
G01 F100 X43.661 Y47.618
G00 Z3.000
G00  X10.615 Y45.061
G01 F100 Z0
G01 F100 Z-0.200
G01 F100 X10.397 Y45.014
G01 F100 X10.193 Y44.924
G01 F100 X10.013 Y44.793
G01 F100 X9.864 Y44.627
G01 F100 X9.752 Y44.434
G01 F100 X9.683 Y44.222
G01 F100 X9.660 Y44.000
G01 F100 X9.683 Y43.778
G01 F100 X9.752 Y43.566
G01 F100 X9.864 Y43.373
G01 F100 X10.013 Y43.208
G01 F100 X10.061 Y43.173
G01 F100 X10.061 Y41.766
G01 F100 X9.861 Y41.766
G01 F100 X9.861 Y40.235
G01 F100 X11.592 Y40.235
G01 F100 X11.592 Y41.766
G01 F100 X11.392 Y41.766
G01 F100 X11.392 Y43.173
G01 F100 X11.440 Y43.208
G01 F100 X11.589 Y43.373
G01 F100 X11.700 Y43.566
G01 F100 X11.769 Y43.778
G01 F100 X11.793 Y44.000
G01 F100 X11.769 Y44.222
G01 F100 X11.700 Y44.434
G01 F100 X11.589 Y44.627
G01 F100 X11.440 Y44.793
G01 F100 X11.259 Y44.924
G01 F100 X11.056 Y45.014
G01 F100 X10.838 Y45.061
G01 F100 X10.615 Y45.061
G00 Z3.000
G00  X34.125 Y44.461
G01 F100 Z0
G01 F100 Z-0.200
G01 F100 X33.928 Y44.419
G01 F100 X33.743 Y44.337
G01 F100 X33.580 Y44.218
G01 F100 X33.444 Y44.068
G01 F100 X33.343 Y43.893
G01 F100 X33.281 Y43.701
G01 F100 X33.260 Y43.500
G01 F100 X33.281 Y43.299
G01 F100 X33.311 Y43.207
G01 F100 X33.311 Y37.140
G01 F100 X26.392 Y37.140
G01 F100 X26.392 Y40.641
G01 F100 X26.367 Y40.875
G01 F100 X26.292 Y41.107
G01 F100 X26.170 Y41.318
G01 F100 X26.007 Y41.499
G01 F100 X25.809 Y41.642
G01 F100 X25.587 Y41.742
G01 F100 X25.348 Y41.792
G01 F100 X25.104 Y41.792
G01 F100 X24.866 Y41.742
G01 F100 X24.643 Y41.642
G01 F100 X24.446 Y41.499
G01 F100 X24.283 Y41.318
G01 F100 X24.161 Y41.107
G01 F100 X24.085 Y40.875
G01 F100 X24.061 Y40.641
G01 F100 X24.061 Y37.140
G01 F100 X17.892 Y37.140
G01 F100 X17.897 Y40.946
G01 F100 X17.965 Y41.157
G01 F100 X17.993 Y41.420
G01 F100 X17.965 Y41.683
G01 F100 X17.883 Y41.935
G01 F100 X17.751 Y42.164
G01 F100 X17.574 Y42.361
G01 F100 X17.359 Y42.517
G01 F100 X17.117 Y42.624
G01 F100 X16.859 Y42.679
G01 F100 X16.594 Y42.679
G01 F100 X16.335 Y42.624
G01 F100 X16.093 Y42.517
G01 F100 X15.879 Y42.361
G01 F100 X15.702 Y42.164
G01 F100 X15.569 Y41.935
G01 F100 X15.488 Y41.683
G01 F100 X15.460 Y41.420
G01 F100 X15.488 Y41.156
G01 F100 X15.561 Y40.937
G01 F100 X15.561 Y37.140
G01 F100 X11.392 Y37.140
G01 F100 X11.392 Y38.235
G01 F100 X11.592 Y38.235
G01 F100 X11.592 Y39.766
G01 F100 X9.861 Y39.766
G01 F100 X9.861 Y38.235
G01 F100 X10.061 Y38.235
G01 F100 X10.061 Y37.140
G01 F100 X9.015 Y37.140
G01 F100 X8.572 Y37.045
G01 F100 X8.158 Y36.861
G01 F100 X7.792 Y36.595
G01 F100 X7.489 Y36.258
G01 F100 X7.423 Y36.145
G01 F100 X5.104 Y36.145
G01 F100 X4.866 Y36.094
G01 F100 X4.643 Y35.995
G01 F100 X4.446 Y35.852
G01 F100 X4.283 Y35.671
G01 F100 X4.161 Y35.459
G01 F100 X4.085 Y35.227
G01 F100 X4.060 Y34.985
G01 F100 X4.085 Y34.742
G01 F100 X4.161 Y34.511
G01 F100 X4.283 Y34.299
G01 F100 X4.446 Y34.118
G01 F100 X4.643 Y33.975
G01 F100 X4.866 Y33.876
G01 F100 X5.104 Y33.825
G01 F100 X7.423 Y33.825
G01 F100 X7.489 Y33.712
G01 F100 X7.792 Y33.375
G01 F100 X8.158 Y33.109
G01 F100 X8.572 Y32.925
G01 F100 X9.015 Y32.831
G01 F100 X10.061 Y32.831
G01 F100 X10.061 Y31.766
G01 F100 X9.861 Y31.766
G01 F100 X9.861 Y30.235
G01 F100 X11.592 Y30.235
G01 F100 X11.592 Y31.766
G01 F100 X11.392 Y31.766
G01 F100 X11.392 Y32.831
G01 F100 X15.561 Y32.831
G01 F100 X15.561 Y29.766
G01 F100 X15.461 Y29.766
G01 F100 X15.461 Y27.235
G01 F100 X17.992 Y27.235
G01 F100 X17.992 Y29.766
G01 F100 X17.892 Y29.766
G01 F100 X17.892 Y32.831
G01 F100 X24.061 Y32.831
G01 F100 X24.061 Y28.541
G01 F100 X26.392 Y28.541
G01 F100 X26.392 Y32.831
G01 F100 X33.311 Y32.831
G01 F100 X33.311 Y27.466
G01 F100 X33.261 Y27.466
G01 F100 X33.261 Y25.535
G01 F100 X35.192 Y25.535
G01 F100 X35.192 Y27.466
G01 F100 X35.142 Y27.466
G01 F100 X35.142 Y32.831
G01 F100 X48.061 Y32.831
G01 F100 X48.061 Y32.266
G01 F100 X47.861 Y32.266
G01 F100 X47.861 Y30.735
G01 F100 X49.592 Y30.735
G01 F100 X49.592 Y32.266
G01 F100 X49.392 Y32.266
G01 F100 X49.392 Y32.831
G01 F100 X63.561 Y32.831
G01 F100 X63.561 Y28.318
G01 F100 X63.596 Y27.980
G01 F100 X63.704 Y27.648
G01 F100 X63.861 Y27.384
G01 F100 X63.861 Y26.961
G01 F100 X64.286 Y26.961
G01 F100 X64.393 Y26.883
G01 F100 X64.711 Y26.742
G01 F100 X65.052 Y26.669
G01 F100 X65.400 Y26.669
G01 F100 X65.741 Y26.742
G01 F100 X66.059 Y26.883
G01 F100 X66.166 Y26.961
G01 F100 X66.585 Y26.961
G01 F100 X66.603 Y27.397
G01 F100 X66.749 Y27.649
G01 F100 X66.856 Y27.980
G01 F100 X66.892 Y28.318
G01 F100 X66.892 Y32.831
G01 F100 X73.468 Y32.831
G01 F100 X73.538 Y32.846
G01 F100 X82.322 Y32.846
G01 F100 X88.061 Y27.107
G01 F100 X88.061 Y19.835
G01 F100 X98.392 Y19.835
G01 F100 X98.392 Y30.166
G01 F100 X91.119 Y30.166
G01 F100 X84.672 Y36.613
G01 F100 X84.309 Y36.876
G01 F100 X83.896 Y37.060
G01 F100 X83.453 Y37.154
G01 F100 X72.500 Y37.154
G01 F100 X72.429 Y37.140
G01 F100 X66.892 Y37.140
G01 F100 X66.892 Y41.718
G01 F100 X66.856 Y42.056
G01 F100 X66.749 Y42.387
G01 F100 X66.574 Y42.689
G01 F100 X66.341 Y42.948
G01 F100 X66.059 Y43.152
G01 F100 X65.741 Y43.294
G01 F100 X65.400 Y43.366
G01 F100 X65.052 Y43.366
G01 F100 X64.711 Y43.294
G01 F100 X64.393 Y43.152
G01 F100 X64.111 Y42.948
G01 F100 X63.878 Y42.689
G01 F100 X63.704 Y42.387
G01 F100 X63.596 Y42.056
G01 F100 X63.561 Y41.718
G01 F100 X63.561 Y37.140
G01 F100 X49.367 Y37.140
G01 F100 X49.367 Y39.235
G01 F100 X49.567 Y39.235
G01 F100 X49.567 Y40.766
G01 F100 X47.836 Y40.766
G01 F100 X47.836 Y39.235
G01 F100 X48.036 Y39.235
G01 F100 X48.036 Y37.140
G01 F100 X35.142 Y37.140
G01 F100 X35.142 Y43.207
G01 F100 X35.172 Y43.299
G01 F100 X35.193 Y43.500
G01 F100 X35.172 Y43.701
G01 F100 X35.109 Y43.893
G01 F100 X35.008 Y44.068
G01 F100 X34.873 Y44.218
G01 F100 X34.709 Y44.337
G01 F100 X34.525 Y44.419
G01 F100 X34.327 Y44.461
G01 F100 X34.125 Y44.461
G00 Z3.000
G00  X5.104 Y33.605
G01 F100 Z0
G01 F100 Z-0.200
G01 F100 X4.866 Y33.554
G01 F100 X4.643 Y33.455
G01 F100 X4.446 Y33.312
G01 F100 X4.283 Y33.131
G01 F100 X4.161 Y32.919
G01 F100 X4.085 Y32.688
G01 F100 X4.061 Y32.454
G01 F100 X4.061 Y23.491
G01 F100 X4.085 Y23.258
G01 F100 X4.161 Y23.026
G01 F100 X4.283 Y22.814
G01 F100 X4.437 Y22.643
G01 F100 X6.949 Y20.131
G01 F100 X7.143 Y19.990
G01 F100 X7.366 Y19.891
G01 F100 X7.604 Y19.840
G01 F100 X15.560 Y19.840
G01 F100 X15.556 Y18.814
G01 F100 X15.488 Y18.603
G01 F100 X15.460 Y18.340
G01 F100 X15.488 Y18.077
G01 F100 X15.569 Y17.825
G01 F100 X15.702 Y17.596
G01 F100 X15.879 Y17.399
G01 F100 X16.093 Y17.243
G01 F100 X16.335 Y17.136
G01 F100 X16.594 Y17.081
G01 F100 X16.859 Y17.081
G01 F100 X17.117 Y17.136
G01 F100 X17.359 Y17.243
G01 F100 X17.574 Y17.399
G01 F100 X17.751 Y17.596
G01 F100 X17.883 Y17.825
G01 F100 X17.965 Y18.077
G01 F100 X17.993 Y18.340
G01 F100 X17.965 Y18.604
G01 F100 X17.892 Y18.823
G01 F100 X17.892 Y19.840
G01 F100 X24.061 Y19.840
G01 F100 X24.061 Y18.265
G01 F100 X23.961 Y18.265
G01 F100 X23.961 Y15.735
G01 F100 X26.492 Y15.735
G01 F100 X26.492 Y18.265
G01 F100 X26.392 Y18.265
G01 F100 X26.392 Y19.840
G01 F100 X34.348 Y19.840
G01 F100 X34.587 Y19.891
G01 F100 X34.809 Y19.990
G01 F100 X35.003 Y20.131
G01 F100 X37.242 Y22.370
G01 F100 X44.948 Y22.370
G01 F100 X45.187 Y22.421
G01 F100 X45.409 Y22.520
G01 F100 X45.607 Y22.663
G01 F100 X45.770 Y22.844
G01 F100 X45.783 Y22.867
G01 F100 X47.861 Y22.867
G01 F100 X47.861 Y22.735
G01 F100 X49.592 Y22.735
G01 F100 X49.592 Y24.265
G01 F100 X47.861 Y24.265
G01 F100 X47.861 Y24.193
G01 F100 X45.783 Y24.193
G01 F100 X45.770 Y24.216
G01 F100 X45.607 Y24.397
G01 F100 X45.409 Y24.540
G01 F100 X45.187 Y24.639
G01 F100 X44.948 Y24.690
G01 F100 X36.634 Y24.690
G01 F100 X36.396 Y24.639
G01 F100 X36.173 Y24.540
G01 F100 X35.979 Y24.399
G01 F100 X35.142 Y23.562
G01 F100 X35.142 Y24.207
G01 F100 X35.172 Y24.299
G01 F100 X35.193 Y24.500
G01 F100 X35.172 Y24.701
G01 F100 X35.109 Y24.893
G01 F100 X35.008 Y25.068
G01 F100 X34.873 Y25.218
G01 F100 X34.709 Y25.337
G01 F100 X34.525 Y25.419
G01 F100 X34.327 Y25.461
G01 F100 X34.125 Y25.461
G01 F100 X33.928 Y25.419
G01 F100 X33.743 Y25.337
G01 F100 X33.580 Y25.218
G01 F100 X33.444 Y25.068
G01 F100 X33.343 Y24.893
G01 F100 X33.281 Y24.701
G01 F100 X33.260 Y24.500
G01 F100 X33.281 Y24.299
G01 F100 X33.311 Y24.207
G01 F100 X33.311 Y22.160
G01 F100 X26.392 Y22.160
G01 F100 X26.392 Y24.876
G01 F100 X26.367 Y25.110
G01 F100 X26.292 Y25.342
G01 F100 X26.170 Y25.553
G01 F100 X26.007 Y25.735
G01 F100 X25.809 Y25.878
G01 F100 X25.587 Y25.977
G01 F100 X25.348 Y26.028
G01 F100 X25.104 Y26.028
G01 F100 X24.866 Y25.977
G01 F100 X24.643 Y25.878
G01 F100 X24.446 Y25.735
G01 F100 X24.283 Y25.553
G01 F100 X24.161 Y25.342
G01 F100 X24.085 Y25.110
G01 F100 X24.061 Y24.876
G01 F100 X24.061 Y22.160
G01 F100 X11.892 Y22.160
G01 F100 X11.892 Y23.469
G01 F100 X11.867 Y23.703
G01 F100 X11.792 Y23.934
G01 F100 X11.670 Y24.146
G01 F100 X11.507 Y24.327
G01 F100 X11.309 Y24.470
G01 F100 X11.087 Y24.569
G01 F100 X10.848 Y24.620
G01 F100 X10.604 Y24.620
G01 F100 X10.366 Y24.569
G01 F100 X10.143 Y24.470
G01 F100 X9.946 Y24.327
G01 F100 X9.783 Y24.146
G01 F100 X9.661 Y23.934
G01 F100 X9.585 Y23.703
G01 F100 X9.561 Y23.469
G01 F100 X9.561 Y22.160
G01 F100 X8.213 Y22.160
G01 F100 X6.392 Y23.981
G01 F100 X6.392 Y32.454
G01 F100 X6.367 Y32.688
G01 F100 X6.292 Y32.919
G01 F100 X6.170 Y33.131
G01 F100 X6.007 Y33.312
G01 F100 X5.809 Y33.455
G01 F100 X5.587 Y33.554
G01 F100 X5.348 Y33.605
G01 F100 X5.104 Y33.605
G00 Z3.000
G00  X79.052 Y31.497
G01 F100 Z0
G01 F100 Z-0.200
G01 F100 X78.711 Y31.425
G01 F100 X78.393 Y31.283
G01 F100 X78.111 Y31.078
G01 F100 X77.878 Y30.820
G01 F100 X77.704 Y30.518
G01 F100 X77.596 Y30.187
G01 F100 X77.561 Y29.849
G01 F100 X77.561 Y9.741
G01 F100 X77.596 Y9.404
G01 F100 X77.704 Y9.072
G01 F100 X77.878 Y8.771
G01 F100 X78.102 Y8.521
G01 F100 X82.865 Y3.759
G01 F100 X83.143 Y3.557
G01 F100 X83.461 Y3.415
G01 F100 X83.802 Y3.343
G01 F100 X84.150 Y3.343
G01 F100 X84.491 Y3.415
G01 F100 X84.809 Y3.557
G01 F100 X85.091 Y3.762
G01 F100 X85.324 Y4.021
G01 F100 X85.499 Y4.322
G01 F100 X85.606 Y4.654
G01 F100 X85.643 Y5.000
G01 F100 X85.606 Y5.347
G01 F100 X85.499 Y5.678
G01 F100 X85.324 Y5.980
G01 F100 X85.100 Y6.229
G01 F100 X80.892 Y10.437
G01 F100 X80.892 Y29.849
G01 F100 X80.856 Y30.187
G01 F100 X80.749 Y30.518
G01 F100 X80.574 Y30.820
G01 F100 X80.341 Y31.078
G01 F100 X80.059 Y31.283
G01 F100 X79.741 Y31.425
G01 F100 X79.400 Y31.497
G01 F100 X79.052 Y31.497
G00 Z3.000
G00  X47.861 Y30.266
G01 F100 Z0
G01 F100 Z-0.200
G01 F100 X47.861 Y28.735
G01 F100 X48.061 Y28.735
G01 F100 X48.061 Y26.266
G01 F100 X47.861 Y26.266
G01 F100 X47.861 Y24.735
G01 F100 X49.592 Y24.735
G01 F100 X49.592 Y26.266
G01 F100 X49.392 Y26.266
G01 F100 X49.392 Y26.837
G01 F100 X51.061 Y26.837
G01 F100 X51.061 Y23.025
G01 F100 X47.149 Y19.113
G01 F100 X45.992 Y19.113
G01 F100 X45.992 Y19.568
G01 F100 X43.661 Y19.568
G01 F100 X43.661 Y17.332
G01 F100 X45.992 Y17.332
G01 F100 X45.992 Y17.787
G01 F100 X47.496 Y17.787
G01 F100 X47.632 Y17.816
G01 F100 X47.759 Y17.873
G01 F100 X47.869 Y17.952
G01 F100 X52.181 Y22.265
G01 F100 X52.265 Y22.358
G01 F100 X52.335 Y22.479
G01 F100 X52.378 Y22.611
G01 F100 X52.392 Y22.741
G01 F100 X52.392 Y27.509
G01 F100 X52.378 Y27.639
G01 F100 X52.335 Y27.771
G01 F100 X52.265 Y27.892
G01 F100 X52.172 Y27.995
G01 F100 X52.059 Y28.077
G01 F100 X51.932 Y28.134
G01 F100 X51.796 Y28.163
G01 F100 X49.392 Y28.163
G01 F100 X49.392 Y28.735
G01 F100 X49.592 Y28.735
G01 F100 X49.592 Y30.266
G01 F100 X47.861 Y30.266
G00 Z3.000
G00  X9.861 Y29.766
G01 F100 Z0
G01 F100 Z-0.200
G01 F100 X9.861 Y28.235
G01 F100 X10.061 Y28.235
G01 F100 X10.061 Y27.066
G01 F100 X9.661 Y27.066
G01 F100 X9.661 Y24.934
G01 F100 X11.792 Y24.934
G01 F100 X11.792 Y27.066
G01 F100 X11.392 Y27.066
G01 F100 X11.392 Y28.235
G01 F100 X11.592 Y28.235
G01 F100 X11.592 Y29.766
G01 F100 X9.861 Y29.766
G00 Z3.000
G00  X54.879 Y22.484
G01 F100 Z0
G01 F100 Z-0.200
G01 F100 X54.538 Y22.411
G01 F100 X54.220 Y22.270
G01 F100 X53.941 Y22.067
G01 F100 X45.531 Y13.657
G01 F100 X38.352 Y13.657
G01 F100 X38.011 Y13.585
G01 F100 X37.693 Y13.443
G01 F100 X37.415 Y13.241
G01 F100 X33.102 Y8.929
G01 F100 X32.878 Y8.680
G01 F100 X32.704 Y8.378
G01 F100 X32.596 Y8.046
G01 F100 X32.561 Y7.709
G01 F100 X32.561 Y4.291
G01 F100 X32.596 Y3.954
G01 F100 X32.704 Y3.622
G01 F100 X32.878 Y3.321
G01 F100 X33.111 Y3.062
G01 F100 X33.393 Y2.857
G01 F100 X33.711 Y2.715
G01 F100 X34.052 Y2.643
G01 F100 X34.400 Y2.643
G01 F100 X34.741 Y2.715
G01 F100 X35.059 Y2.857
G01 F100 X35.341 Y3.062
G01 F100 X35.574 Y3.321
G01 F100 X35.748 Y3.622
G01 F100 X35.856 Y3.954
G01 F100 X35.892 Y4.291
G01 F100 X35.892 Y7.013
G01 F100 X39.221 Y10.343
G01 F100 X46.400 Y10.343
G01 F100 X46.741 Y10.415
G01 F100 X47.059 Y10.557
G01 F100 X47.338 Y10.759
G01 F100 X55.748 Y19.169
G01 F100 X58.311 Y19.169
G01 F100 X58.311 Y4.991
G01 F100 X58.346 Y4.654
G01 F100 X58.454 Y4.322
G01 F100 X58.628 Y4.021
G01 F100 X58.861 Y3.762
G01 F100 X59.143 Y3.557
G01 F100 X59.461 Y3.415
G01 F100 X59.802 Y3.343
G01 F100 X60.150 Y3.343
G01 F100 X60.491 Y3.415
G01 F100 X60.809 Y3.557
G01 F100 X61.091 Y3.762
G01 F100 X61.324 Y4.021
G01 F100 X61.498 Y4.322
G01 F100 X61.606 Y4.654
G01 F100 X61.642 Y4.991
G01 F100 X61.642 Y19.169
G01 F100 X65.400 Y19.169
G01 F100 X65.741 Y19.242
G01 F100 X66.059 Y19.383
G01 F100 X66.341 Y19.588
G01 F100 X66.574 Y19.847
G01 F100 X66.749 Y20.149
G01 F100 X66.856 Y20.480
G01 F100 X66.893 Y20.826
G01 F100 X66.856 Y21.173
G01 F100 X66.749 Y21.504
G01 F100 X66.574 Y21.806
G01 F100 X66.341 Y22.065
G01 F100 X66.059 Y22.270
G01 F100 X65.741 Y22.411
G01 F100 X65.400 Y22.484
G01 F100 X54.879 Y22.484
G00 Z3.000
G00  X39.254 Y22.150
G01 F100 Z0
G01 F100 Z-0.200
G01 F100 X39.016 Y22.099
G01 F100 X38.793 Y22.000
G01 F100 X38.599 Y21.859
G01 F100 X35.397 Y18.657
G01 F100 X35.212 Y18.657
G01 F100 X34.871 Y18.585
G01 F100 X34.553 Y18.443
G01 F100 X34.275 Y18.241
G01 F100 X25.391 Y9.357
G01 F100 X20.552 Y9.357
G01 F100 X20.211 Y9.285
G01 F100 X19.893 Y9.143
G01 F100 X19.611 Y8.938
G01 F100 X19.378 Y8.680
G01 F100 X19.204 Y8.378
G01 F100 X19.096 Y8.046
G01 F100 X19.061 Y7.709
G01 F100 X19.061 Y4.291
G01 F100 X19.096 Y3.954
G01 F100 X19.204 Y3.622
G01 F100 X19.378 Y3.321
G01 F100 X19.611 Y3.062
G01 F100 X19.893 Y2.857
G01 F100 X20.211 Y2.715
G01 F100 X20.552 Y2.643
G01 F100 X20.900 Y2.643
G01 F100 X21.241 Y2.715
G01 F100 X21.559 Y2.857
G01 F100 X21.841 Y3.062
G01 F100 X22.074 Y3.321
G01 F100 X22.248 Y3.622
G01 F100 X22.356 Y3.954
G01 F100 X22.392 Y4.291
G01 F100 X22.392 Y6.043
G01 F100 X26.260 Y6.043
G01 F100 X26.601 Y6.115
G01 F100 X26.919 Y6.257
G01 F100 X27.198 Y6.459
G01 F100 X36.510 Y15.771
G01 F100 X36.734 Y16.021
G01 F100 X36.909 Y16.322
G01 F100 X37.016 Y16.654
G01 F100 X37.053 Y17.000
G01 F100 X37.051 Y17.018
G01 F100 X39.862 Y19.830
G01 F100 X44.948 Y19.830
G01 F100 X45.187 Y19.881
G01 F100 X45.409 Y19.980
G01 F100 X45.607 Y20.123
G01 F100 X45.770 Y20.304
G01 F100 X45.892 Y20.516
G01 F100 X45.922 Y20.609
G01 F100 X45.938 Y20.644
G01 F100 X45.946 Y20.682
G01 F100 X45.967 Y20.748
G01 F100 X45.974 Y20.817
G01 F100 X45.986 Y20.873
G01 F100 X45.986 Y20.932
G01 F100 X45.993 Y20.990
G01 F100 X45.986 Y21.048
G01 F100 X45.986 Y21.107
G01 F100 X45.974 Y21.164
G01 F100 X45.967 Y21.233
G01 F100 X45.946 Y21.298
G01 F100 X45.938 Y21.336
G01 F100 X45.922 Y21.371
G01 F100 X45.892 Y21.464
G01 F100 X45.770 Y21.676
G01 F100 X45.607 Y21.857
G01 F100 X45.409 Y22.000
G01 F100 X45.187 Y22.099
G01 F100 X44.948 Y22.150
G01 F100 X39.254 Y22.150
G00 Z3.000
G00  X5.166 Y20.388
G01 F100 Z0
G01 F100 Z-0.200
G01 F100 X4.979 Y20.348
G01 F100 X4.804 Y20.270
G01 F100 X4.649 Y20.157
G01 F100 X4.521 Y20.015
G01 F100 X4.425 Y19.849
G01 F100 X4.365 Y19.667
G01 F100 X4.346 Y19.485
G01 F100 X4.346 Y14.515
G01 F100 X4.365 Y14.333
G01 F100 X4.425 Y14.151
G01 F100 X4.521 Y13.985
G01 F100 X4.649 Y13.843
G01 F100 X4.804 Y13.730
G01 F100 X4.979 Y13.652
G01 F100 X5.166 Y13.612
G01 F100 X5.358 Y13.612
G01 F100 X5.545 Y13.652
G01 F100 X5.720 Y13.730
G01 F100 X5.875 Y13.843
G01 F100 X6.003 Y13.985
G01 F100 X6.099 Y14.151
G01 F100 X6.158 Y14.333
G01 F100 X6.177 Y14.515
G01 F100 X6.177 Y19.485
G01 F100 X6.158 Y19.667
G01 F100 X6.099 Y19.849
G01 F100 X6.003 Y20.015
G01 F100 X5.875 Y20.157
G01 F100 X5.720 Y20.270
G01 F100 X5.545 Y20.348
G01 F100 X5.358 Y20.388
G01 F100 X5.166 Y20.388
G00 Z3.000
G00  X90.654 Y16.876
G01 F100 Z0
G01 F100 Z-0.200
G01 F100 X90.467 Y16.836
G01 F100 X90.292 Y16.758
G01 F100 X90.137 Y16.645
G01 F100 X90.009 Y16.503
G01 F100 X89.913 Y16.337
G01 F100 X89.854 Y16.155
G01 F100 X89.834 Y15.964
G01 F100 X89.854 Y15.774
G01 F100 X89.913 Y15.592
G01 F100 X90.009 Y15.426
G01 F100 X90.137 Y15.283
G01 F100 X90.292 Y15.171
G01 F100 X90.467 Y15.093
G01 F100 X90.654 Y15.053
G01 F100 X95.798 Y15.053
G01 F100 X95.986 Y15.093
G01 F100 X96.161 Y15.171
G01 F100 X96.316 Y15.283
G01 F100 X96.444 Y15.426
G01 F100 X96.540 Y15.592
G01 F100 X96.599 Y15.774
G01 F100 X96.619 Y15.964
G01 F100 X96.599 Y16.155
G01 F100 X96.540 Y16.337
G01 F100 X96.444 Y16.503
G01 F100 X96.316 Y16.645
G01 F100 X96.161 Y16.758
G01 F100 X95.986 Y16.836
G01 F100 X95.798 Y16.876
G01 F100 X90.654 Y16.876
G00 Z3.000
G00  X75.052 Y13.657
G01 F100 Z0
G01 F100 Z-0.200
G01 F100 X74.711 Y13.585
G01 F100 X74.393 Y13.443
G01 F100 X74.115 Y13.241
G01 F100 X67.531 Y6.657
G01 F100 X63.802 Y6.657
G01 F100 X63.461 Y6.585
G01 F100 X63.143 Y6.443
G01 F100 X62.861 Y6.238
G01 F100 X62.628 Y5.980
G01 F100 X62.454 Y5.678
G01 F100 X62.346 Y5.347
G01 F100 X62.310 Y5.000
G01 F100 X62.346 Y4.654
G01 F100 X62.454 Y4.322
G01 F100 X62.628 Y4.021
G01 F100 X62.861 Y3.762
G01 F100 X63.143 Y3.557
G01 F100 X63.461 Y3.415
G01 F100 X63.802 Y3.343
G01 F100 X68.400 Y3.343
G01 F100 X68.741 Y3.415
G01 F100 X69.059 Y3.557
G01 F100 X69.338 Y3.759
G01 F100 X76.350 Y10.771
G01 F100 X76.574 Y11.021
G01 F100 X76.749 Y11.322
G01 F100 X76.856 Y11.654
G01 F100 X76.893 Y12.000
G01 F100 X76.856 Y12.347
G01 F100 X76.749 Y12.678
G01 F100 X76.574 Y12.979
G01 F100 X76.341 Y13.238
G01 F100 X76.059 Y13.443
G01 F100 X75.741 Y13.585
G01 F100 X75.400 Y13.657
G01 F100 X75.052 Y13.657
G00 Z3.000
G00  X55.052 Y13.657
G01 F100 Z0
G01 F100 Z-0.200
G01 F100 X54.711 Y13.585
G01 F100 X54.393 Y13.443
G01 F100 X54.115 Y13.241
G01 F100 X47.531 Y6.657
G01 F100 X39.802 Y6.657
G01 F100 X39.461 Y6.585
G01 F100 X39.143 Y6.443
G01 F100 X38.861 Y6.238
G01 F100 X38.628 Y5.980
G01 F100 X38.454 Y5.678
G01 F100 X38.346 Y5.347
G01 F100 X38.310 Y5.000
G01 F100 X38.346 Y4.654
G01 F100 X38.454 Y4.322
G01 F100 X38.628 Y4.021
G01 F100 X38.861 Y3.762
G01 F100 X39.143 Y3.557
G01 F100 X39.461 Y3.415
G01 F100 X39.802 Y3.343
G01 F100 X48.400 Y3.343
G01 F100 X48.741 Y3.415
G01 F100 X49.059 Y3.557
G01 F100 X49.338 Y3.759
G01 F100 X56.350 Y10.771
G01 F100 X56.574 Y11.021
G01 F100 X56.748 Y11.322
G01 F100 X56.856 Y11.654
G01 F100 X56.893 Y12.000
G01 F100 X56.856 Y12.347
G01 F100 X56.748 Y12.678
G01 F100 X56.574 Y12.979
G01 F100 X56.341 Y13.238
G01 F100 X56.059 Y13.443
G01 F100 X55.741 Y13.585
G01 F100 X55.400 Y13.657
G01 F100 X55.052 Y13.657
G00 Z3.000
G00  X92.686 Y12.138
G01 F100 Z0
G01 F100 Z-0.200
G01 F100 X91.630 Y11.914
G01 F100 X90.643 Y11.474
G01 F100 X89.769 Y10.839
G01 F100 X89.047 Y10.037
G01 F100 X88.507 Y9.101
G01 F100 X88.173 Y8.074
G01 F100 X88.060 Y7.000
G01 F100 X88.173 Y5.926
G01 F100 X88.507 Y4.899
G01 F100 X89.047 Y3.963
G01 F100 X89.769 Y3.161
G01 F100 X90.643 Y2.526
G01 F100 X91.630 Y2.087
G01 F100 X92.686 Y1.862
G01 F100 X93.766 Y1.862
G01 F100 X94.823 Y2.087
G01 F100 X95.809 Y2.526
G01 F100 X96.683 Y3.161
G01 F100 X97.406 Y3.963
G01 F100 X97.946 Y4.899
G01 F100 X98.280 Y5.926
G01 F100 X98.393 Y7.000
G01 F100 X98.280 Y8.074
G01 F100 X97.946 Y9.101
G01 F100 X97.406 Y10.037
G01 F100 X96.683 Y10.839
G01 F100 X95.809 Y11.474
G01 F100 X94.823 Y11.914
G01 F100 X93.766 Y12.138
G01 F100 X92.686 Y12.138
G00 Z3.000
G00  X6.686 Y12.138
G01 F100 Z0
G01 F100 Z-0.200
G01 F100 X5.630 Y11.914
G01 F100 X4.643 Y11.474
G01 F100 X3.769 Y10.839
G01 F100 X3.046 Y10.037
G01 F100 X2.506 Y9.101
G01 F100 X2.173 Y8.074
G01 F100 X2.060 Y7.000
G01 F100 X2.173 Y5.926
G01 F100 X2.506 Y4.899
G01 F100 X3.046 Y3.963
G01 F100 X3.769 Y3.161
G01 F100 X4.643 Y2.526
G01 F100 X5.630 Y2.087
G01 F100 X6.686 Y1.862
G01 F100 X7.766 Y1.862
G01 F100 X8.823 Y2.087
G01 F100 X9.809 Y2.526
G01 F100 X10.683 Y3.161
G01 F100 X11.406 Y3.963
G01 F100 X11.946 Y4.899
G01 F100 X12.280 Y5.926
G01 F100 X12.393 Y7.000
G01 F100 X12.280 Y8.074
G01 F100 X11.946 Y9.101
G01 F100 X11.406 Y10.037
G01 F100 X10.683 Y10.839
G01 F100 X9.809 Y11.474
G01 F100 X8.823 Y11.914
G01 F100 X7.766 Y12.138
G01 F100 X6.686 Y12.138
G00 Z3.000
G00 Z3.000
M05
M30
%