( PCB drills )
( Generated by Carbide Copper )
( Material Size )
( X= 100.000, Y= 70.000, Z= 1.450 )
()
G17
G21
G54
G90
M03 S1000
G00 Z3.000
G00  X34.226 Y45.500
G00 F750 Z0
G01 F15000 Z-1.650
G00 Z3.000
G00  X34.226 Y43.500
G00 F750 Z0
G01 F15000 Z-1.650
G00 Z3.000
G00  X34.226 Y26.500
G00 F750 Z0
G01 F15000 Z-1.650
G00 Z3.000
G00  X34.226 Y24.500
G00 F750 Z0
G01 F15000 Z-1.650
G00 Z3.000
G00  X10.726 Y46.540
G00 F750 Z0
G01 F15000 Z-1.650
G00 Z3.000
G00  X10.726 Y44.000
G00 F750 Z0
G01 F15000 Z-1.650
G00 Z3.000
G00  X10.726 Y26.000
G00 F750 Z0
G01 F15000 Z-1.650
G00 Z3.000
G00  X10.726 Y23.460
G00 F750 Z0
G01 F15000 Z-1.650
G00 Z3.000
G00  X25.226 Y45.632
G00 F750 Z0
G01 F15000 Z-1.650
G00 Z3.000
G00  X25.226 Y40.632
G00 F750 Z0
G01 F15000 Z-1.650
G00 Z3.000
G00  X25.226 Y29.706
G00 F750 Z0
G01 F15000 Z-1.650
G00 Z3.000
G00  X25.226 Y24.706
G00 F750 Z0
G01 F15000 Z-1.650
G00 Z3.000
G00  X5.226 Y37.525
G00 F750 Z0
G01 F15000 Z-1.650
G00 Z3.000
G00  X5.226 Y34.985
G00 F750 Z0
G01 F15000 Z-1.650
G00 Z3.000
G00  X5.226 Y32.445
G00 F750 Z0
G01 F15000 Z-1.650
G00 Z3.000
G00  X79.226 Y59.580
G00 F750 Z0
G01 F15000 Z-1.650
G00 Z3.000
G00  X79.226 Y49.420
G00 F750 Z0
G01 F15000 Z-1.650
G00 Z3.000
G00  X79.226 Y40.000
G00 F750 Z0
G01 F15000 Z-1.650
G00 Z3.000
G00  X79.226 Y29.840
G00 F750 Z0
G01 F15000 Z-1.650
G00 Z3.000
G00  X44.826 Y51.580
G00 F750 Z0
G01 F15000 Z-1.650
G00 Z3.000
G00  X44.826 Y49.040
G00 F750 Z0
G01 F15000 Z-1.650
G00 Z3.000
G00  X44.826 Y46.500
G00 F750 Z0
G01 F15000 Z-1.650
G00 Z3.000
G00  X44.826 Y23.530
G00 F750 Z0
G01 F15000 Z-1.650
G00 Z3.000
G00  X44.826 Y20.990
G00 F750 Z0
G01 F15000 Z-1.650
G00 Z3.000
G00  X44.826 Y18.450
G00 F750 Z0
G01 F15000 Z-1.650
G00 Z3.000
G00  X35.386 Y17.000
G00 F750 Z0
G01 F15000 Z-1.650
G00 Z3.000
G00  X35.306 Y53.000
G00 F750 Z0
G01 F15000 Z-1.650
G00 Z3.000
G00  X25.226 Y17.000
G00 F750 Z0
G01 F15000 Z-1.650
G00 Z3.000
G00  X25.146 Y53.000
G00 F750 Z0
G01 F15000 Z-1.650
G00 Z3.000
G00  X16.726 Y51.580
G00 F750 Z0
G01 F15000 Z-1.650
G00 Z3.000
G00  X16.726 Y41.420
G00 F750 Z0
G01 F15000 Z-1.650
G00 Z3.000
G00  X16.726 Y28.500
G00 F750 Z0
G01 F15000 Z-1.650
G00 Z3.000
G00  X16.726 Y18.340
G00 F750 Z0
G01 F15000 Z-1.650
G00 Z3.000
G00  X65.226 Y49.209
G00 F750 Z0
G01 F15000 Z-1.650
G00 Z3.000
G00  X65.226 Y41.709
G00 F750 Z0
G01 F15000 Z-1.650
G00 Z3.000
G00  X65.226 Y28.327
G00 F750 Z0
G01 F15000 Z-1.650
G00 Z3.000
G00  X65.226 Y20.827
G00 F750 Z0
G01 F15000 Z-1.650
G00 Z3.000
G00  X83.976 Y65.000
G00 F750 Z0
G01 F15000 Z-1.650
G00 Z3.000
G00  X83.976 Y5.000
G00 F750 Z0
G01 F15000 Z-1.650
G00 Z3.000
G00  X75.226 Y12.000
G00 F750 Z0
G01 F15000 Z-1.650
G00 Z3.000
G00  X74.976 Y58.000
G00 F750 Z0
G01 F15000 Z-1.650
G00 Z3.000
G00  X63.976 Y65.000
G00 F750 Z0
G01 F15000 Z-1.650
G00 Z3.000
G00  X63.976 Y5.000
G00 F750 Z0
G01 F15000 Z-1.650
G00 Z3.000
G00  X59.976 Y65.000
G00 F750 Z0
G01 F15000 Z-1.650
G00 Z3.000
G00  X59.976 Y5.000
G00 F750 Z0
G01 F15000 Z-1.650
G00 Z3.000
G00  X55.226 Y12.000
G00 F750 Z0
G01 F15000 Z-1.650
G00 Z3.000
G00  X54.976 Y58.000
G00 F750 Z0
G01 F15000 Z-1.650
G00 Z3.000
G00  X39.976 Y65.000
G00 F750 Z0
G01 F15000 Z-1.650
G00 Z3.000
G00  X39.976 Y5.000
G00 F750 Z0
G01 F15000 Z-1.650
G00 Z3.000
G00  X34.226 Y65.700
G00 F750 Z0
G01 F15000 Z-1.650
G00 Z3.000
G00  X34.226 Y62.300
G00 F750 Z0
G01 F15000 Z-1.650
G00 Z3.000
G00  X34.226 Y7.700
G00 F750 Z0
G01 F15000 Z-1.650
G00 Z3.000
G00  X34.226 Y4.300
G00 F750 Z0
G01 F15000 Z-1.650
G00 Z3.000
G00  X20.726 Y65.700
G00 F750 Z0
G01 F15000 Z-1.650
G00 Z3.000
G00  X20.726 Y62.300
G00 F750 Z0
G01 F15000 Z-1.650
G00 Z3.000
G00  X20.726 Y7.700
G00 F750 Z0
G01 F15000 Z-1.650
G00 Z3.000
G00  X20.726 Y4.300
G00 F750 Z0
G01 F15000 Z-1.650
G00 Z3.000
G00  X93.226 Y63.000
G00 F750 Z0
G01 F15000 Z-1.650
G00 Z3.000
G00  X93.226 Y45.000
G00 F750 Z0
G01 F15000 Z-1.650
G00 Z3.000
G00  X93.226 Y25.000
G00 F750 Z0
G01 F15000 Z-1.650
G00 Z3.000
G00  X93.226 Y7.000
G00 F750 Z0
G01 F15000 Z-1.650
G00 Z3.000
G00  X7.226 Y63.000
G00 F750 Z0
G01 F15000 Z-1.650
G00 Z3.000
G00  X7.226 Y7.000
G00 F750 Z0
G01 F15000 Z-1.650
G00 Z3.000
G00 Z3.000
M05
M30
%