( PCB Contour - pass 2 )
( Generated by Carbide Copper )
( Material Size )
( X= 100.000, Y= 70.000, Z= 1.450 )
()
G17
G21
G54
G90
M03 S1000
G00 Z3.000
G00  X6.655 Y68.436
G01 F100 Z0
G01 F100 Z-0.200
G01 F100 X5.537 Y68.198
G01 F100 X4.493 Y67.734
G01 F100 X3.569 Y67.062
G01 F100 X2.804 Y66.213
G01 F100 X2.233 Y65.223
G01 F100 X1.880 Y64.136
G01 F100 X1.760 Y63.000
G01 F100 X1.880 Y61.864
G01 F100 X2.233 Y60.777
G01 F100 X2.804 Y59.787
G01 F100 X3.569 Y58.938
G01 F100 X4.493 Y58.266
G01 F100 X5.537 Y57.802
G01 F100 X6.655 Y57.564
G01 F100 X7.798 Y57.564
G01 F100 X8.915 Y57.802
G01 F100 X9.959 Y58.266
G01 F100 X10.884 Y58.938
G01 F100 X11.648 Y59.787
G01 F100 X12.220 Y60.777
G01 F100 X12.573 Y61.864
G01 F100 X12.692 Y63.000
G01 F100 X12.573 Y64.136
G01 F100 X12.220 Y65.223
G01 F100 X11.648 Y66.213
G01 F100 X10.884 Y67.062
G01 F100 X9.959 Y67.734
G01 F100 X8.915 Y68.198
G01 F100 X7.798 Y68.436
G01 F100 X6.655 Y68.436
G00 Z3.000
G00  X92.655 Y68.436
G01 F100 Z0
G01 F100 Z-0.200
G01 F100 X91.537 Y68.198
G01 F100 X90.493 Y67.734
G01 F100 X89.569 Y67.062
G01 F100 X88.804 Y66.213
G01 F100 X88.233 Y65.223
G01 F100 X87.880 Y64.136
G01 F100 X87.760 Y63.000
G01 F100 X87.880 Y61.864
G01 F100 X88.233 Y60.777
G01 F100 X88.804 Y59.787
G01 F100 X89.569 Y58.938
G01 F100 X90.493 Y58.266
G01 F100 X91.537 Y57.802
G01 F100 X92.655 Y57.564
G01 F100 X93.797 Y57.564
G01 F100 X94.915 Y57.802
G01 F100 X95.959 Y58.266
G01 F100 X96.884 Y58.938
G01 F100 X97.648 Y59.787
G01 F100 X98.220 Y60.777
G01 F100 X98.573 Y61.864
G01 F100 X98.692 Y63.000
G01 F100 X98.573 Y64.136
G01 F100 X98.220 Y65.223
G01 F100 X97.648 Y66.213
G01 F100 X96.884 Y67.062
G01 F100 X95.959 Y67.734
G01 F100 X94.915 Y68.198
G01 F100 X93.797 Y68.436
G01 F100 X92.655 Y68.436
G00 Z3.000
G00  X34.021 Y67.655
G01 F100 Z0
G01 F100 Z-0.200
G01 F100 X33.619 Y67.570
G01 F100 X33.243 Y67.403
G01 F100 X32.911 Y67.161
G01 F100 X32.636 Y66.856
G01 F100 X32.430 Y66.500
G01 F100 X32.303 Y66.109
G01 F100 X32.263 Y65.724
G01 F100 X32.263 Y61.976
G01 F100 X32.303 Y61.591
G01 F100 X32.430 Y61.200
G01 F100 X32.636 Y60.845
G01 F100 X32.886 Y60.566
G01 F100 X36.921 Y56.532
G01 F100 X37.243 Y56.297
G01 F100 X37.619 Y56.130
G01 F100 X38.021 Y56.045
G01 F100 X45.408 Y56.045
G01 F100 X53.712 Y47.741
G01 F100 X54.034 Y47.507
G01 F100 X54.410 Y47.340
G01 F100 X54.812 Y47.254
G01 F100 X65.432 Y47.254
G01 F100 X65.834 Y47.340
G01 F100 X66.209 Y47.507
G01 F100 X66.263 Y47.546
G01 F100 X66.870 Y47.546
G01 F100 X66.898 Y48.194
G01 F100 X67.022 Y48.410
G01 F100 X67.149 Y48.800
G01 F100 X67.192 Y49.209
G01 F100 X67.149 Y49.618
G01 F100 X67.021 Y50.012
G01 F100 X66.889 Y50.233
G01 F100 X66.889 Y50.872
G01 F100 X66.263 Y50.872
G01 F100 X66.209 Y50.912
G01 F100 X65.834 Y51.079
G01 F100 X65.432 Y51.164
G01 F100 X61.940 Y51.164
G01 F100 X61.940 Y65.024
G01 F100 X61.899 Y65.409
G01 F100 X61.772 Y65.800
G01 F100 X61.567 Y66.156
G01 F100 X61.292 Y66.461
G01 F100 X60.959 Y66.703
G01 F100 X60.584 Y66.870
G01 F100 X60.182 Y66.955
G01 F100 X59.771 Y66.955
G01 F100 X59.369 Y66.870
G01 F100 X58.993 Y66.703
G01 F100 X58.661 Y66.461
G01 F100 X58.386 Y66.156
G01 F100 X58.180 Y65.800
G01 F100 X58.053 Y65.409
G01 F100 X58.013 Y65.024
G01 F100 X58.013 Y51.164
G01 F100 X55.836 Y51.164
G01 F100 X47.532 Y59.468
G01 F100 X47.209 Y59.703
G01 F100 X46.834 Y59.870
G01 F100 X46.432 Y59.955
G01 F100 X39.045 Y59.955
G01 F100 X36.190 Y62.810
G01 F100 X36.190 Y65.724
G01 F100 X36.149 Y66.109
G01 F100 X36.022 Y66.500
G01 F100 X35.817 Y66.856
G01 F100 X35.542 Y67.161
G01 F100 X35.209 Y67.403
G01 F100 X34.834 Y67.570
G01 F100 X34.432 Y67.655
G01 F100 X34.021 Y67.655
G00 Z3.000
G00  X20.521 Y67.655
G01 F100 Z0
G01 F100 Z-0.200
G01 F100 X20.119 Y67.570
G01 F100 X19.743 Y67.403
G01 F100 X19.411 Y67.161
G01 F100 X19.136 Y66.856
G01 F100 X18.930 Y66.500
G01 F100 X18.803 Y66.109
G01 F100 X18.763 Y65.724
G01 F100 X18.763 Y62.276
G01 F100 X18.803 Y61.891
G01 F100 X18.930 Y61.500
G01 F100 X19.136 Y61.145
G01 F100 X19.411 Y60.839
G01 F100 X19.743 Y60.598
G01 F100 X20.119 Y60.430
G01 F100 X20.521 Y60.345
G01 F100 X25.188 Y60.345
G01 F100 X33.743 Y51.790
G01 F100 X33.743 Y51.502
G01 F100 X34.121 Y51.444
G01 F100 X34.323 Y51.297
G01 F100 X34.699 Y51.130
G01 F100 X35.101 Y51.045
G01 F100 X35.512 Y51.045
G01 F100 X35.914 Y51.130
G01 F100 X36.292 Y51.299
G01 F100 X36.477 Y51.437
G01 F100 X36.820 Y51.437
G01 F100 X36.832 Y51.542
G01 F100 X40.117 Y51.542
G01 F100 X41.161 Y50.498
G01 F100 X29.113 Y50.498
G01 F100 X29.026 Y50.479
G01 F100 X26.610 Y50.475
G01 F100 X26.614 Y52.479
G01 F100 X26.678 Y52.674
G01 F100 X26.712 Y53.000
G01 F100 X26.678 Y53.326
G01 F100 X26.577 Y53.637
G01 F100 X26.413 Y53.920
G01 F100 X26.194 Y54.164
G01 F100 X25.929 Y54.356
G01 F100 X25.630 Y54.489
G01 F100 X25.310 Y54.557
G01 F100 X24.983 Y54.557
G01 F100 X24.662 Y54.489
G01 F100 X24.363 Y54.356
G01 F100 X24.098 Y54.164
G01 F100 X23.879 Y53.920
G01 F100 X23.716 Y53.637
G01 F100 X23.615 Y53.326
G01 F100 X23.580 Y53.000
G01 F100 X23.615 Y52.672
G01 F100 X23.683 Y52.469
G01 F100 X23.683 Y50.470
G01 F100 X18.290 Y50.462
G01 F100 X18.290 Y53.143
G01 F100 X15.163 Y53.143
G01 F100 X15.163 Y50.458
G01 F100 X7.573 Y50.458
G01 F100 X7.273 Y50.394
G01 F100 X6.993 Y50.269
G01 F100 X6.755 Y50.096
G01 F100 X4.221 Y47.562
G01 F100 X4.040 Y47.362
G01 F100 X3.887 Y47.096
G01 F100 X3.792 Y46.805
G01 F100 X3.763 Y46.524
G01 F100 X3.763 Y37.501
G01 F100 X3.792 Y37.220
G01 F100 X3.887 Y36.929
G01 F100 X3.913 Y36.884
G01 F100 X3.913 Y36.212
G01 F100 X4.434 Y36.212
G01 F100 X4.245 Y36.074
G01 F100 X4.040 Y35.847
G01 F100 X3.887 Y35.581
G01 F100 X3.792 Y35.290
G01 F100 X3.760 Y34.985
G01 F100 X3.792 Y34.680
G01 F100 X3.887 Y34.389
G01 F100 X4.040 Y34.123
G01 F100 X4.245 Y33.896
G01 F100 X4.493 Y33.715
G01 F100 X4.494 Y33.715
G01 F100 X4.493 Y33.715
G01 F100 X4.245 Y33.534
G01 F100 X4.040 Y33.307
G01 F100 X3.887 Y33.041
G01 F100 X3.792 Y32.750
G01 F100 X3.763 Y32.469
G01 F100 X3.763 Y23.476
G01 F100 X3.792 Y23.195
G01 F100 X3.887 Y22.904
G01 F100 X4.040 Y22.638
G01 F100 X4.221 Y22.438
G01 F100 X6.755 Y19.903
G01 F100 X6.993 Y19.730
G01 F100 X7.273 Y19.606
G01 F100 X7.573 Y19.542
G01 F100 X15.261 Y19.542
G01 F100 X15.258 Y18.862
G01 F100 X15.195 Y18.666
G01 F100 X15.160 Y18.340
G01 F100 X15.195 Y18.014
G01 F100 X15.296 Y17.703
G01 F100 X15.459 Y17.420
G01 F100 X15.678 Y17.176
G01 F100 X15.943 Y16.984
G01 F100 X16.242 Y16.851
G01 F100 X16.563 Y16.783
G01 F100 X16.890 Y16.783
G01 F100 X17.210 Y16.851
G01 F100 X17.509 Y16.984
G01 F100 X17.774 Y17.176
G01 F100 X17.993 Y17.420
G01 F100 X18.157 Y17.703
G01 F100 X18.258 Y18.014
G01 F100 X18.292 Y18.340
G01 F100 X18.258 Y18.668
G01 F100 X18.190 Y18.871
G01 F100 X18.190 Y19.542
G01 F100 X23.763 Y19.542
G01 F100 X23.763 Y18.563
G01 F100 X23.663 Y18.563
G01 F100 X23.663 Y15.437
G01 F100 X26.790 Y15.437
G01 F100 X26.790 Y18.563
G01 F100 X26.690 Y18.563
G01 F100 X26.690 Y19.542
G01 F100 X34.379 Y19.542
G01 F100 X34.679 Y19.606
G01 F100 X34.959 Y19.730
G01 F100 X35.197 Y19.903
G01 F100 X37.366 Y22.072
G01 F100 X38.391 Y22.072
G01 F100 X35.274 Y18.955
G01 F100 X35.181 Y18.955
G01 F100 X34.779 Y18.870
G01 F100 X34.403 Y18.703
G01 F100 X34.081 Y18.468
G01 F100 X25.268 Y9.655
G01 F100 X20.521 Y9.655
G01 F100 X20.119 Y9.570
G01 F100 X19.743 Y9.402
G01 F100 X19.411 Y9.161
G01 F100 X19.136 Y8.856
G01 F100 X18.930 Y8.500
G01 F100 X18.803 Y8.109
G01 F100 X18.763 Y7.724
G01 F100 X18.763 Y4.276
G01 F100 X18.803 Y3.891
G01 F100 X18.930 Y3.500
G01 F100 X19.136 Y3.145
G01 F100 X19.411 Y2.839
G01 F100 X19.743 Y2.598
G01 F100 X20.119 Y2.430
G01 F100 X20.521 Y2.345
G01 F100 X20.932 Y2.345
G01 F100 X21.334 Y2.430
G01 F100 X21.709 Y2.598
G01 F100 X22.042 Y2.839
G01 F100 X22.317 Y3.145
G01 F100 X22.522 Y3.500
G01 F100 X22.649 Y3.891
G01 F100 X22.690 Y4.276
G01 F100 X22.690 Y5.745
G01 F100 X26.292 Y5.745
G01 F100 X26.694 Y5.830
G01 F100 X27.069 Y5.998
G01 F100 X27.392 Y6.232
G01 F100 X36.726 Y15.566
G01 F100 X36.977 Y15.845
G01 F100 X37.182 Y16.200
G01 F100 X37.309 Y16.591
G01 F100 X37.340 Y16.887
G01 F100 X39.986 Y19.532
G01 F100 X43.363 Y19.532
G01 F100 X43.363 Y17.034
G01 F100 X46.290 Y17.034
G01 F100 X46.290 Y17.489
G01 F100 X47.527 Y17.489
G01 F100 X47.725 Y17.531
G01 F100 X47.909 Y17.614
G01 F100 X48.063 Y17.725
G01 F100 X52.397 Y22.059
G01 F100 X52.508 Y22.182
G01 F100 X52.609 Y22.357
G01 F100 X52.671 Y22.549
G01 F100 X52.690 Y22.726
G01 F100 X52.690 Y27.524
G01 F100 X52.671 Y27.701
G01 F100 X52.609 Y27.893
G01 F100 X52.508 Y28.068
G01 F100 X52.373 Y28.218
G01 F100 X52.209 Y28.336
G01 F100 X52.025 Y28.419
G01 F100 X51.827 Y28.460
G01 F100 X49.890 Y28.460
G01 F100 X49.890 Y32.533
G01 F100 X63.263 Y32.533
G01 F100 X63.263 Y28.302
G01 F100 X63.303 Y27.918
G01 F100 X63.431 Y27.524
G01 F100 X63.563 Y27.302
G01 F100 X63.563 Y26.663
G01 F100 X64.189 Y26.663
G01 F100 X64.243 Y26.624
G01 F100 X64.619 Y26.457
G01 F100 X65.021 Y26.372
G01 F100 X65.432 Y26.372
G01 F100 X65.834 Y26.457
G01 F100 X66.209 Y26.624
G01 F100 X66.263 Y26.663
G01 F100 X66.870 Y26.663
G01 F100 X66.898 Y27.312
G01 F100 X67.022 Y27.527
G01 F100 X67.149 Y27.918
G01 F100 X67.190 Y28.302
G01 F100 X67.190 Y32.533
G01 F100 X73.499 Y32.533
G01 F100 X73.570 Y32.548
G01 F100 X82.199 Y32.548
G01 F100 X87.763 Y26.984
G01 F100 X87.763 Y19.537
G01 F100 X98.690 Y19.537
G01 F100 X98.690 Y30.463
G01 F100 X91.243 Y30.463
G01 F100 X84.866 Y36.840
G01 F100 X84.459 Y37.136
G01 F100 X83.988 Y37.345
G01 F100 X83.484 Y37.452
G01 F100 X72.468 Y37.452
G01 F100 X72.398 Y37.437
G01 F100 X67.190 Y37.437
G01 F100 X67.190 Y41.733
G01 F100 X67.149 Y42.118
G01 F100 X67.022 Y42.509
G01 F100 X66.817 Y42.865
G01 F100 X66.542 Y43.170
G01 F100 X66.209 Y43.412
G01 F100 X65.834 Y43.579
G01 F100 X65.432 Y43.664
G01 F100 X65.021 Y43.664
G01 F100 X64.619 Y43.579
G01 F100 X64.243 Y43.412
G01 F100 X63.911 Y43.170
G01 F100 X63.636 Y42.865
G01 F100 X63.430 Y42.509
G01 F100 X63.303 Y42.118
G01 F100 X63.263 Y41.733
G01 F100 X63.263 Y37.437
G01 F100 X49.665 Y37.437
G01 F100 X49.665 Y38.937
G01 F100 X49.864 Y38.937
G01 F100 X49.864 Y43.063
G01 F100 X49.665 Y43.063
G01 F100 X49.665 Y43.937
G01 F100 X49.864 Y43.937
G01 F100 X49.864 Y48.063
G01 F100 X49.665 Y48.063
G01 F100 X49.665 Y48.549
G01 F100 X49.646 Y48.726
G01 F100 X49.584 Y48.918
G01 F100 X49.483 Y49.093
G01 F100 X49.372 Y49.216
G01 F100 X48.823 Y49.765
G01 F100 X48.669 Y49.877
G01 F100 X48.485 Y49.959
G01 F100 X48.287 Y50.001
G01 F100 X45.923 Y50.001
G01 F100 X45.807 Y50.129
G01 F100 X45.559 Y50.309
G01 F100 X45.558 Y50.310
G01 F100 X45.559 Y50.311
G01 F100 X45.807 Y50.491
G01 F100 X46.012 Y50.718
G01 F100 X46.165 Y50.984
G01 F100 X46.201 Y51.092
G01 F100 X46.223 Y51.141
G01 F100 X46.234 Y51.196
G01 F100 X46.260 Y51.275
G01 F100 X46.269 Y51.360
G01 F100 X46.284 Y51.432
G01 F100 X46.284 Y51.505
G01 F100 X46.292 Y51.580
G01 F100 X46.284 Y51.655
G01 F100 X46.284 Y51.728
G01 F100 X46.269 Y51.800
G01 F100 X46.260 Y51.885
G01 F100 X46.234 Y51.964
G01 F100 X46.223 Y52.019
G01 F100 X46.201 Y52.068
G01 F100 X46.165 Y52.176
G01 F100 X46.012 Y52.442
G01 F100 X45.807 Y52.669
G01 F100 X45.559 Y52.849
G01 F100 X45.279 Y52.974
G01 F100 X44.979 Y53.038
G01 F100 X42.756 Y53.038
G01 F100 X41.697 Y54.097
G01 F100 X41.459 Y54.270
G01 F100 X41.179 Y54.394
G01 F100 X40.880 Y54.458
G01 F100 X36.870 Y54.470
G01 F100 X36.870 Y54.498
G01 F100 X36.530 Y54.550
G01 F100 X27.312 Y63.768
G01 F100 X26.989 Y64.002
G01 F100 X26.614 Y64.170
G01 F100 X26.212 Y64.255
G01 F100 X22.690 Y64.255
G01 F100 X22.690 Y65.724
G01 F100 X22.649 Y66.109
G01 F100 X22.522 Y66.500
G01 F100 X22.317 Y66.856
G01 F100 X22.042 Y67.161
G01 F100 X21.709 Y67.403
G01 F100 X21.334 Y67.570
G01 F100 X20.932 Y67.655
G01 F100 X20.521 Y67.655
G00 Z3.000
G00  X83.771 Y66.955
G01 F100 Z0
G01 F100 Z-0.200
G01 F100 X83.369 Y66.870
G01 F100 X82.993 Y66.703
G01 F100 X82.671 Y66.468
G01 F100 X77.886 Y61.684
G01 F100 X77.636 Y61.406
G01 F100 X77.430 Y61.050
G01 F100 X77.303 Y60.659
G01 F100 X77.263 Y60.274
G01 F100 X77.263 Y59.556
G01 F100 X77.303 Y59.171
G01 F100 X77.430 Y58.780
G01 F100 X77.636 Y58.425
G01 F100 X77.663 Y58.394
G01 F100 X77.663 Y58.082
G01 F100 X78.041 Y58.024
G01 F100 X78.243 Y57.878
G01 F100 X78.619 Y57.710
G01 F100 X79.021 Y57.625
G01 F100 X79.432 Y57.625
G01 F100 X79.834 Y57.710
G01 F100 X80.212 Y57.879
G01 F100 X80.397 Y58.017
G01 F100 X80.790 Y58.017
G01 F100 X80.790 Y58.394
G01 F100 X80.817 Y58.425
G01 F100 X81.022 Y58.780
G01 F100 X81.149 Y59.171
G01 F100 X81.176 Y59.426
G01 F100 X85.316 Y63.566
G01 F100 X85.567 Y63.845
G01 F100 X85.772 Y64.200
G01 F100 X85.899 Y64.591
G01 F100 X85.942 Y65.000
G01 F100 X85.899 Y65.409
G01 F100 X85.772 Y65.800
G01 F100 X85.567 Y66.156
G01 F100 X85.292 Y66.461
G01 F100 X84.959 Y66.703
G01 F100 X84.584 Y66.870
G01 F100 X84.182 Y66.955
G01 F100 X83.771 Y66.955
G00 Z3.000
G00  X63.771 Y66.955
G01 F100 Z0
G01 F100 Z-0.200
G01 F100 X63.369 Y66.870
G01 F100 X62.993 Y66.703
G01 F100 X62.661 Y66.461
G01 F100 X62.386 Y66.156
G01 F100 X62.180 Y65.800
G01 F100 X62.053 Y65.409
G01 F100 X62.010 Y65.000
G01 F100 X62.053 Y64.591
G01 F100 X62.180 Y64.200
G01 F100 X62.386 Y63.845
G01 F100 X62.661 Y63.539
G01 F100 X62.993 Y63.298
G01 F100 X63.369 Y63.130
G01 F100 X63.771 Y63.045
G01 F100 X67.158 Y63.045
G01 F100 X73.671 Y56.532
G01 F100 X73.993 Y56.297
G01 F100 X74.369 Y56.130
G01 F100 X74.771 Y56.045
G01 F100 X75.182 Y56.045
G01 F100 X75.584 Y56.130
G01 F100 X75.959 Y56.297
G01 F100 X76.292 Y56.539
G01 F100 X76.567 Y56.845
G01 F100 X76.772 Y57.200
G01 F100 X76.899 Y57.591
G01 F100 X76.942 Y58.000
G01 F100 X76.899 Y58.409
G01 F100 X76.772 Y58.800
G01 F100 X76.567 Y59.156
G01 F100 X76.316 Y59.434
G01 F100 X69.282 Y66.468
G01 F100 X68.959 Y66.703
G01 F100 X68.584 Y66.870
G01 F100 X68.182 Y66.955
G01 F100 X63.771 Y66.955
G00 Z3.000
G00  X39.771 Y66.955
G01 F100 Z0
G01 F100 Z-0.200
G01 F100 X39.369 Y66.870
G01 F100 X38.993 Y66.703
G01 F100 X38.661 Y66.461
G01 F100 X38.386 Y66.156
G01 F100 X38.180 Y65.800
G01 F100 X38.053 Y65.409
G01 F100 X38.010 Y65.000
G01 F100 X38.053 Y64.591
G01 F100 X38.180 Y64.200
G01 F100 X38.386 Y63.845
G01 F100 X38.661 Y63.539
G01 F100 X38.993 Y63.298
G01 F100 X39.369 Y63.130
G01 F100 X39.771 Y63.045
G01 F100 X47.158 Y63.045
G01 F100 X53.671 Y56.532
G01 F100 X53.993 Y56.297
G01 F100 X54.369 Y56.130
G01 F100 X54.771 Y56.045
G01 F100 X55.182 Y56.045
G01 F100 X55.584 Y56.130
G01 F100 X55.959 Y56.297
G01 F100 X56.292 Y56.539
G01 F100 X56.567 Y56.845
G01 F100 X56.772 Y57.200
G01 F100 X56.899 Y57.591
G01 F100 X56.942 Y58.000
G01 F100 X56.899 Y58.409
G01 F100 X56.772 Y58.800
G01 F100 X56.567 Y59.156
G01 F100 X56.316 Y59.434
G01 F100 X49.282 Y66.468
G01 F100 X48.959 Y66.703
G01 F100 X48.584 Y66.870
G01 F100 X48.182 Y66.955
G01 F100 X39.771 Y66.955
G00 Z3.000
G00  X5.099 Y57.221
G01 F100 Z0
G01 F100 Z-0.200
G01 F100 X4.850 Y57.168
G01 F100 X4.618 Y57.065
G01 F100 X4.413 Y56.916
G01 F100 X4.243 Y56.727
G01 F100 X4.115 Y56.506
G01 F100 X4.037 Y56.265
G01 F100 X4.013 Y56.036
G01 F100 X4.013 Y54.745
G01 F100 X2.623 Y54.745
G01 F100 X2.374 Y54.692
G01 F100 X2.142 Y54.589
G01 F100 X1.936 Y54.439
G01 F100 X1.766 Y54.251
G01 F100 X1.639 Y54.030
G01 F100 X1.561 Y53.788
G01 F100 X1.534 Y53.536
G01 F100 X1.561 Y53.283
G01 F100 X1.639 Y53.041
G01 F100 X1.766 Y52.821
G01 F100 X1.936 Y52.632
G01 F100 X2.142 Y52.483
G01 F100 X2.374 Y52.379
G01 F100 X2.623 Y52.327
G01 F100 X4.013 Y52.327
G01 F100 X4.013 Y51.035
G01 F100 X4.037 Y50.807
G01 F100 X4.115 Y50.565
G01 F100 X4.243 Y50.345
G01 F100 X4.413 Y50.156
G01 F100 X4.618 Y50.007
G01 F100 X4.851 Y49.903
G01 F100 X5.099 Y49.850
G01 F100 X5.353 Y49.850
G01 F100 X5.602 Y49.903
G01 F100 X5.834 Y50.007
G01 F100 X6.040 Y50.156
G01 F100 X6.210 Y50.345
G01 F100 X6.337 Y50.565
G01 F100 X6.415 Y50.807
G01 F100 X6.440 Y51.035
G01 F100 X6.440 Y52.327
G01 F100 X7.830 Y52.327
G01 F100 X8.078 Y52.379
G01 F100 X8.310 Y52.483
G01 F100 X8.516 Y52.632
G01 F100 X8.686 Y52.821
G01 F100 X8.813 Y53.041
G01 F100 X8.892 Y53.283
G01 F100 X8.918 Y53.536
G01 F100 X8.892 Y53.788
G01 F100 X8.813 Y54.030
G01 F100 X8.686 Y54.250
G01 F100 X8.516 Y54.439
G01 F100 X8.310 Y54.589
G01 F100 X8.078 Y54.692
G01 F100 X7.830 Y54.745
G01 F100 X6.440 Y54.745
G01 F100 X6.440 Y56.036
G01 F100 X6.415 Y56.265
G01 F100 X6.337 Y56.506
G01 F100 X6.210 Y56.727
G01 F100 X6.040 Y56.916
G01 F100 X5.834 Y57.065
G01 F100 X5.602 Y57.168
G01 F100 X5.353 Y57.221
G01 F100 X5.099 Y57.221
G00 Z3.000
G00  X92.528 Y55.781
G01 F100 Z0
G01 F100 Z-0.200
G01 F100 X92.279 Y55.728
G01 F100 X92.082 Y55.640
G01 F100 X91.276 Y55.237
G01 F100 X91.089 Y55.101
G01 F100 X90.674 Y54.686
G01 F100 X90.528 Y54.524
G01 F100 X90.401 Y54.304
G01 F100 X90.323 Y54.062
G01 F100 X90.296 Y53.809
G01 F100 X90.323 Y53.557
G01 F100 X90.401 Y53.315
G01 F100 X90.528 Y53.095
G01 F100 X90.698 Y52.906
G01 F100 X90.904 Y52.757
G01 F100 X91.136 Y52.653
G01 F100 X91.385 Y52.600
G01 F100 X91.639 Y52.600
G01 F100 X91.888 Y52.653
G01 F100 X92.120 Y52.757
G01 F100 X92.316 Y52.899
G01 F100 X92.612 Y53.195
G01 F100 X92.655 Y53.216
G01 F100 X93.606 Y52.741
G01 F100 X93.803 Y52.653
G01 F100 X94.052 Y52.600
G01 F100 X94.306 Y52.600
G01 F100 X94.554 Y52.653
G01 F100 X94.752 Y52.741
G01 F100 X95.557 Y53.144
G01 F100 X95.744 Y53.280
G01 F100 X96.159 Y53.695
G01 F100 X96.305 Y53.857
G01 F100 X96.432 Y54.077
G01 F100 X96.511 Y54.319
G01 F100 X96.537 Y54.571
G01 F100 X96.511 Y54.824
G01 F100 X96.432 Y55.066
G01 F100 X96.305 Y55.286
G01 F100 X96.135 Y55.475
G01 F100 X95.929 Y55.624
G01 F100 X95.697 Y55.728
G01 F100 X95.449 Y55.781
G01 F100 X95.194 Y55.781
G01 F100 X94.946 Y55.728
G01 F100 X94.713 Y55.624
G01 F100 X94.518 Y55.482
G01 F100 X94.222 Y55.186
G01 F100 X94.179 Y55.165
G01 F100 X93.228 Y55.640
G01 F100 X93.030 Y55.728
G01 F100 X92.782 Y55.781
G01 F100 X92.528 Y55.781
G00 Z3.000
G00  X79.021 Y51.375
G01 F100 Z0
G01 F100 Z-0.200
G01 F100 X78.619 Y51.290
G01 F100 X78.243 Y51.123
G01 F100 X77.911 Y50.881
G01 F100 X77.636 Y50.576
G01 F100 X77.430 Y50.220
G01 F100 X77.303 Y49.829
G01 F100 X77.263 Y49.444
G01 F100 X77.263 Y39.976
G01 F100 X77.303 Y39.591
G01 F100 X77.430 Y39.200
G01 F100 X77.636 Y38.845
G01 F100 X77.663 Y38.814
G01 F100 X77.663 Y38.502
G01 F100 X78.041 Y38.444
G01 F100 X78.243 Y38.297
G01 F100 X78.619 Y38.130
G01 F100 X79.021 Y38.045
G01 F100 X79.432 Y38.045
G01 F100 X79.834 Y38.130
G01 F100 X80.212 Y38.299
G01 F100 X80.397 Y38.437
G01 F100 X80.790 Y38.437
G01 F100 X80.790 Y38.814
G01 F100 X80.817 Y38.845
G01 F100 X81.022 Y39.200
G01 F100 X81.149 Y39.591
G01 F100 X81.190 Y39.976
G01 F100 X81.190 Y42.190
G01 F100 X81.548 Y42.548
G01 F100 X87.763 Y42.548
G01 F100 X87.763 Y39.537
G01 F100 X98.690 Y39.537
G01 F100 X98.690 Y50.463
G01 F100 X87.763 Y50.463
G01 F100 X87.763 Y47.452
G01 F100 X81.548 Y47.452
G01 F100 X81.190 Y47.810
G01 F100 X81.190 Y49.444
G01 F100 X81.149 Y49.829
G01 F100 X81.022 Y50.220
G01 F100 X80.817 Y50.576
G01 F100 X80.542 Y50.881
G01 F100 X80.209 Y51.123
G01 F100 X79.834 Y51.290
G01 F100 X79.432 Y51.375
G01 F100 X79.021 Y51.375
G00 Z3.000
G00  X45.923 Y48.080
G01 F100 Z0
G01 F100 Z-0.200
G01 F100 X47.738 Y48.080
G01 F100 X47.738 Y48.063
G01 F100 X47.538 Y48.063
G01 F100 X47.538 Y44.436
G01 F100 X45.790 Y44.436
G01 F100 X45.790 Y45.084
G01 F100 X46.290 Y45.084
G01 F100 X46.290 Y47.916
G01 F100 X45.759 Y47.916
G01 F100 X45.807 Y47.951
G01 F100 X45.923 Y48.080
G00 Z3.000
G00  X35.440 Y47.582
G01 F100 Z0
G01 F100 Z-0.200
G01 F100 X43.363 Y47.582
G01 F100 X43.363 Y45.084
G01 F100 X43.863 Y45.084
G01 F100 X43.863 Y43.876
G01 F100 X43.882 Y43.699
G01 F100 X43.944 Y43.507
G01 F100 X44.045 Y43.332
G01 F100 X44.155 Y43.209
G01 F100 X44.615 Y42.750
G01 F100 X44.768 Y42.639
G01 F100 X44.953 Y42.556
G01 F100 X45.150 Y42.515
G01 F100 X47.538 Y42.515
G01 F100 X47.538 Y38.937
G01 F100 X47.738 Y38.937
G01 F100 X47.738 Y37.437
G01 F100 X35.440 Y37.437
G01 F100 X35.440 Y43.160
G01 F100 X35.464 Y43.237
G01 F100 X35.492 Y43.500
G01 F100 X35.464 Y43.763
G01 F100 X35.383 Y44.015
G01 F100 X35.255 Y44.237
G01 F100 X35.489 Y44.237
G01 F100 X35.489 Y46.763
G01 F100 X35.440 Y46.763
G01 F100 X35.440 Y47.582
G00 Z3.000
G00  X29.487 Y47.582
G01 F100 Z0
G01 F100 Z-0.200
G01 F100 X33.013 Y47.582
G01 F100 X33.013 Y46.763
G01 F100 X32.963 Y46.763
G01 F100 X32.963 Y44.237
G01 F100 X33.198 Y44.237
G01 F100 X33.070 Y44.015
G01 F100 X32.988 Y43.763
G01 F100 X32.960 Y43.500
G01 F100 X32.988 Y43.237
G01 F100 X33.013 Y43.160
G01 F100 X33.013 Y37.437
G01 F100 X26.690 Y37.437
G01 F100 X26.690 Y40.657
G01 F100 X26.660 Y40.937
G01 F100 X26.565 Y41.229
G01 F100 X26.412 Y41.494
G01 F100 X26.207 Y41.722
G01 F100 X25.959 Y41.902
G01 F100 X25.679 Y42.026
G01 F100 X25.379 Y42.090
G01 F100 X25.073 Y42.090
G01 F100 X24.773 Y42.026
G01 F100 X24.493 Y41.902
G01 F100 X24.245 Y41.722
G01 F100 X24.040 Y41.494
G01 F100 X23.887 Y41.229
G01 F100 X23.792 Y40.937
G01 F100 X23.763 Y40.657
G01 F100 X23.763 Y37.437
G01 F100 X18.190 Y37.437
G01 F100 X18.194 Y40.899
G01 F100 X18.258 Y41.095
G01 F100 X18.292 Y41.420
G01 F100 X18.258 Y41.746
G01 F100 X18.157 Y42.057
G01 F100 X17.993 Y42.340
G01 F100 X17.774 Y42.584
G01 F100 X17.509 Y42.776
G01 F100 X17.210 Y42.909
G01 F100 X16.890 Y42.977
G01 F100 X16.563 Y42.977
G01 F100 X16.242 Y42.909
G01 F100 X15.943 Y42.776
G01 F100 X15.678 Y42.584
G01 F100 X15.459 Y42.340
G01 F100 X15.296 Y42.057
G01 F100 X15.195 Y41.746
G01 F100 X15.160 Y41.420
G01 F100 X15.195 Y41.092
G01 F100 X15.263 Y40.889
G01 F100 X15.263 Y37.437
G01 F100 X11.690 Y37.437
G01 F100 X11.690 Y37.937
G01 F100 X11.889 Y37.937
G01 F100 X11.889 Y42.063
G01 F100 X11.690 Y42.063
G01 F100 X11.690 Y43.040
G01 F100 X11.831 Y43.197
G01 F100 X11.974 Y43.445
G01 F100 X12.062 Y43.716
G01 F100 X12.092 Y44.000
G01 F100 X12.062 Y44.284
G01 F100 X11.974 Y44.556
G01 F100 X11.831 Y44.803
G01 F100 X11.640 Y45.015
G01 F100 X11.418 Y45.177
G01 F100 X12.090 Y45.177
G01 F100 X12.090 Y46.018
G01 F100 X12.160 Y46.235
G01 F100 X12.190 Y46.516
G01 F100 X12.190 Y47.542
G01 F100 X16.623 Y47.542
G01 F100 X16.836 Y47.543
G01 F100 X23.763 Y47.555
G01 F100 X23.763 Y44.169
G01 F100 X26.690 Y44.169
G01 F100 X26.690 Y47.559
G01 F100 X29.401 Y47.564
G01 F100 X29.487 Y47.582
G00 Z3.000
G00  X8.336 Y47.542
G01 F100 Z0
G01 F100 Z-0.200
G01 F100 X9.263 Y47.542
G01 F100 X9.263 Y46.516
G01 F100 X9.292 Y46.235
G01 F100 X9.363 Y46.018
G01 F100 X9.363 Y45.177
G01 F100 X10.035 Y45.177
G01 F100 X9.812 Y45.015
G01 F100 X9.621 Y44.803
G01 F100 X9.478 Y44.556
G01 F100 X9.390 Y44.284
G01 F100 X9.360 Y44.000
G01 F100 X9.390 Y43.716
G01 F100 X9.478 Y43.445
G01 F100 X9.621 Y43.197
G01 F100 X9.763 Y43.040
G01 F100 X9.763 Y42.063
G01 F100 X9.563 Y42.063
G01 F100 X9.563 Y37.937
G01 F100 X9.763 Y37.937
G01 F100 X9.763 Y37.437
G01 F100 X8.983 Y37.437
G01 F100 X8.479 Y37.330
G01 F100 X8.008 Y37.120
G01 F100 X7.591 Y36.818
G01 F100 X7.254 Y36.443
G01 F100 X6.540 Y36.443
G01 F100 X6.540 Y36.884
G01 F100 X6.565 Y36.929
G01 F100 X6.660 Y37.220
G01 F100 X6.690 Y37.501
G01 F100 X6.690 Y45.896
G01 F100 X8.336 Y47.542
G00 Z3.000
G00  X6.214 Y33.527
G01 F100 Z0
G01 F100 Z-0.200
G01 F100 X7.254 Y33.527
G01 F100 X7.591 Y33.153
G01 F100 X8.008 Y32.850
G01 F100 X8.479 Y32.640
G01 F100 X8.983 Y32.533
G01 F100 X9.763 Y32.533
G01 F100 X9.763 Y32.063
G01 F100 X9.563 Y32.063
G01 F100 X9.563 Y27.937
G01 F100 X9.763 Y27.937
G01 F100 X9.763 Y27.363
G01 F100 X9.363 Y27.363
G01 F100 X9.363 Y24.637
G01 F100 X9.866 Y24.637
G01 F100 X9.745 Y24.549
G01 F100 X9.540 Y24.322
G01 F100 X9.387 Y24.056
G01 F100 X9.292 Y23.765
G01 F100 X9.263 Y23.484
G01 F100 X9.263 Y22.458
G01 F100 X8.336 Y22.458
G01 F100 X6.690 Y24.104
G01 F100 X6.690 Y32.469
G01 F100 X6.660 Y32.750
G01 F100 X6.565 Y33.041
G01 F100 X6.412 Y33.307
G01 F100 X6.214 Y33.527
G00 Z3.000
G00  X35.440 Y32.533
G01 F100 Z0
G01 F100 Z-0.200
G01 F100 X47.563 Y32.533
G01 F100 X47.563 Y28.437
G01 F100 X47.763 Y28.437
G01 F100 X47.763 Y26.563
G01 F100 X47.563 Y26.563
G01 F100 X47.563 Y24.491
G01 F100 X45.923 Y24.491
G01 F100 X45.807 Y24.619
G01 F100 X45.559 Y24.800
G01 F100 X45.279 Y24.924
G01 F100 X44.979 Y24.988
G01 F100 X36.603 Y24.988
G01 F100 X36.303 Y24.924
G01 F100 X36.023 Y24.799
G01 F100 X35.785 Y24.627
G01 F100 X35.473 Y24.314
G01 F100 X35.492 Y24.500
G01 F100 X35.464 Y24.763
G01 F100 X35.383 Y25.015
G01 F100 X35.255 Y25.237
G01 F100 X35.489 Y25.237
G01 F100 X35.489 Y27.763
G01 F100 X35.440 Y27.763
G01 F100 X35.440 Y32.533
G00 Z3.000
G00  X11.690 Y32.533
G01 F100 Z0
G01 F100 Z-0.200
G01 F100 X15.263 Y32.533
G01 F100 X15.263 Y30.063
G01 F100 X15.163 Y30.063
G01 F100 X15.163 Y26.937
G01 F100 X18.290 Y26.937
G01 F100 X18.290 Y30.063
G01 F100 X18.190 Y30.063
G01 F100 X18.190 Y32.533
G01 F100 X23.763 Y32.533
G01 F100 X23.763 Y28.243
G01 F100 X26.690 Y28.243
G01 F100 X26.690 Y32.533
G01 F100 X33.013 Y32.533
G01 F100 X33.013 Y27.763
G01 F100 X32.963 Y27.763
G01 F100 X32.963 Y25.237
G01 F100 X33.198 Y25.237
G01 F100 X33.070 Y25.015
G01 F100 X32.988 Y24.763
G01 F100 X32.960 Y24.500
G01 F100 X32.988 Y24.237
G01 F100 X33.013 Y24.160
G01 F100 X33.013 Y22.458
G01 F100 X26.690 Y22.458
G01 F100 X26.690 Y24.892
G01 F100 X26.660 Y25.172
G01 F100 X26.565 Y25.464
G01 F100 X26.412 Y25.729
G01 F100 X26.207 Y25.957
G01 F100 X25.959 Y26.137
G01 F100 X25.679 Y26.262
G01 F100 X25.379 Y26.326
G01 F100 X25.073 Y26.326
G01 F100 X24.773 Y26.262
G01 F100 X24.493 Y26.137
G01 F100 X24.245 Y25.957
G01 F100 X24.040 Y25.729
G01 F100 X23.887 Y25.464
G01 F100 X23.792 Y25.172
G01 F100 X23.763 Y24.892
G01 F100 X23.763 Y22.458
G01 F100 X12.190 Y22.458
G01 F100 X12.190 Y23.484
G01 F100 X12.160 Y23.765
G01 F100 X12.065 Y24.056
G01 F100 X11.912 Y24.322
G01 F100 X11.707 Y24.549
G01 F100 X11.587 Y24.637
G01 F100 X12.090 Y24.637
G01 F100 X12.090 Y27.363
G01 F100 X11.690 Y27.363
G01 F100 X11.690 Y27.937
G01 F100 X11.889 Y27.937
G01 F100 X11.889 Y32.063
G01 F100 X11.690 Y32.063
G01 F100 X11.690 Y32.533
G00 Z3.000
G00  X79.021 Y31.795
G01 F100 Z0
G01 F100 Z-0.200
G01 F100 X78.619 Y31.710
G01 F100 X78.243 Y31.543
G01 F100 X77.911 Y31.301
G01 F100 X77.636 Y30.995
G01 F100 X77.430 Y30.640
G01 F100 X77.303 Y30.249
G01 F100 X77.263 Y29.864
G01 F100 X77.263 Y9.726
G01 F100 X77.303 Y9.341
G01 F100 X77.430 Y8.950
G01 F100 X77.636 Y8.595
G01 F100 X77.886 Y8.316
G01 F100 X82.671 Y3.532
G01 F100 X82.993 Y3.298
G01 F100 X83.369 Y3.130
G01 F100 X83.771 Y3.045
G01 F100 X84.182 Y3.045
G01 F100 X84.584 Y3.130
G01 F100 X84.959 Y3.298
G01 F100 X85.292 Y3.539
G01 F100 X85.567 Y3.845
G01 F100 X85.772 Y4.200
G01 F100 X85.899 Y4.591
G01 F100 X85.942 Y5.000
G01 F100 X85.899 Y5.409
G01 F100 X85.772 Y5.800
G01 F100 X85.567 Y6.155
G01 F100 X85.316 Y6.434
G01 F100 X81.190 Y10.560
G01 F100 X81.190 Y29.864
G01 F100 X81.149 Y30.249
G01 F100 X81.022 Y30.640
G01 F100 X80.817 Y30.995
G01 F100 X80.542 Y31.301
G01 F100 X80.209 Y31.543
G01 F100 X79.834 Y31.710
G01 F100 X79.432 Y31.795
G01 F100 X79.021 Y31.795
G00 Z3.000
G00  X49.890 Y26.540
G01 F100 Z0
G01 F100 Z-0.200
G01 F100 X50.763 Y26.540
G01 F100 X50.763 Y23.148
G01 F100 X47.025 Y19.411
G01 F100 X46.290 Y19.411
G01 F100 X46.290 Y19.866
G01 F100 X45.759 Y19.866
G01 F100 X45.807 Y19.901
G01 F100 X46.012 Y20.128
G01 F100 X46.165 Y20.394
G01 F100 X46.201 Y20.502
G01 F100 X46.223 Y20.551
G01 F100 X46.234 Y20.606
G01 F100 X46.260 Y20.685
G01 F100 X46.269 Y20.770
G01 F100 X46.284 Y20.842
G01 F100 X46.284 Y20.915
G01 F100 X46.292 Y20.990
G01 F100 X46.284 Y21.065
G01 F100 X46.284 Y21.138
G01 F100 X46.269 Y21.210
G01 F100 X46.260 Y21.295
G01 F100 X46.234 Y21.374
G01 F100 X46.223 Y21.429
G01 F100 X46.201 Y21.478
G01 F100 X46.165 Y21.586
G01 F100 X46.012 Y21.852
G01 F100 X45.807 Y22.079
G01 F100 X45.559 Y22.260
G01 F100 X45.558 Y22.260
G01 F100 X45.559 Y22.261
G01 F100 X45.807 Y22.441
G01 F100 X45.923 Y22.570
G01 F100 X47.563 Y22.570
G01 F100 X47.563 Y22.437
G01 F100 X49.890 Y22.437
G01 F100 X49.890 Y26.540
G00 Z3.000
G00  X54.847 Y22.782
G01 F100 Z0
G01 F100 Z-0.200
G01 F100 X54.445 Y22.696
G01 F100 X54.070 Y22.529
G01 F100 X53.747 Y22.295
G01 F100 X45.408 Y13.955
G01 F100 X38.321 Y13.955
G01 F100 X37.919 Y13.870
G01 F100 X37.543 Y13.703
G01 F100 X37.221 Y13.468
G01 F100 X32.886 Y9.134
G01 F100 X32.636 Y8.856
G01 F100 X32.430 Y8.500
G01 F100 X32.303 Y8.109
G01 F100 X32.263 Y7.724
G01 F100 X32.263 Y4.276
G01 F100 X32.303 Y3.891
G01 F100 X32.430 Y3.500
G01 F100 X32.636 Y3.145
G01 F100 X32.911 Y2.839
G01 F100 X33.243 Y2.598
G01 F100 X33.619 Y2.430
G01 F100 X34.021 Y2.345
G01 F100 X34.432 Y2.345
G01 F100 X34.834 Y2.430
G01 F100 X35.209 Y2.598
G01 F100 X35.542 Y2.839
G01 F100 X35.817 Y3.145
G01 F100 X36.022 Y3.500
G01 F100 X36.149 Y3.891
G01 F100 X36.190 Y4.276
G01 F100 X36.190 Y6.890
G01 F100 X39.345 Y10.045
G01 F100 X46.432 Y10.045
G01 F100 X46.834 Y10.130
G01 F100 X47.209 Y10.298
G01 F100 X47.532 Y10.532
G01 F100 X55.871 Y18.872
G01 F100 X58.013 Y18.872
G01 F100 X58.013 Y4.976
G01 F100 X58.053 Y4.591
G01 F100 X58.180 Y4.200
G01 F100 X58.386 Y3.845
G01 F100 X58.661 Y3.539
G01 F100 X58.993 Y3.298
G01 F100 X59.369 Y3.130
G01 F100 X59.771 Y3.045
G01 F100 X60.182 Y3.045
G01 F100 X60.584 Y3.130
G01 F100 X60.959 Y3.298
G01 F100 X61.292 Y3.539
G01 F100 X61.567 Y3.845
G01 F100 X61.772 Y4.200
G01 F100 X61.899 Y4.591
G01 F100 X61.940 Y4.976
G01 F100 X61.940 Y18.872
G01 F100 X65.432 Y18.872
G01 F100 X65.834 Y18.957
G01 F100 X66.209 Y19.124
G01 F100 X66.542 Y19.366
G01 F100 X66.817 Y19.671
G01 F100 X67.022 Y20.027
G01 F100 X67.149 Y20.418
G01 F100 X67.192 Y20.826
G01 F100 X67.149 Y21.235
G01 F100 X67.022 Y21.626
G01 F100 X66.817 Y21.982
G01 F100 X66.542 Y22.287
G01 F100 X66.209 Y22.529
G01 F100 X65.834 Y22.696
G01 F100 X65.432 Y22.782
G01 F100 X54.847 Y22.782
G00 Z3.000
G00  X5.135 Y20.685
G01 F100 Z0
G01 F100 Z-0.200
G01 F100 X4.886 Y20.633
G01 F100 X4.654 Y20.529
G01 F100 X4.448 Y20.380
G01 F100 X4.278 Y20.191
G01 F100 X4.151 Y19.971
G01 F100 X4.073 Y19.729
G01 F100 X4.049 Y19.501
G01 F100 X4.049 Y14.500
G01 F100 X4.073 Y14.271
G01 F100 X4.151 Y14.029
G01 F100 X4.278 Y13.809
G01 F100 X4.448 Y13.620
G01 F100 X4.654 Y13.471
G01 F100 X4.886 Y13.368
G01 F100 X5.135 Y13.315
G01 F100 X5.389 Y13.315
G01 F100 X5.638 Y13.368
G01 F100 X5.870 Y13.471
G01 F100 X6.075 Y13.620
G01 F100 X6.246 Y13.809
G01 F100 X6.373 Y14.029
G01 F100 X6.451 Y14.271
G01 F100 X6.475 Y14.500
G01 F100 X6.475 Y19.501
G01 F100 X6.451 Y19.729
G01 F100 X6.373 Y19.971
G01 F100 X6.246 Y20.191
G01 F100 X6.075 Y20.380
G01 F100 X5.870 Y20.529
G01 F100 X5.638 Y20.633
G01 F100 X5.389 Y20.685
G01 F100 X5.135 Y20.685
G00 Z3.000
G00  X90.623 Y17.173
G01 F100 Z0
G01 F100 Z-0.200
G01 F100 X90.374 Y17.121
G01 F100 X90.142 Y17.017
G01 F100 X89.936 Y16.868
G01 F100 X89.766 Y16.679
G01 F100 X89.639 Y16.459
G01 F100 X89.561 Y16.217
G01 F100 X89.534 Y15.964
G01 F100 X89.561 Y15.712
G01 F100 X89.639 Y15.470
G01 F100 X89.766 Y15.250
G01 F100 X89.936 Y15.061
G01 F100 X90.142 Y14.911
G01 F100 X90.374 Y14.808
G01 F100 X90.623 Y14.755
G01 F100 X95.830 Y14.755
G01 F100 X96.078 Y14.808
G01 F100 X96.310 Y14.911
G01 F100 X96.516 Y15.061
G01 F100 X96.686 Y15.250
G01 F100 X96.813 Y15.470
G01 F100 X96.892 Y15.712
G01 F100 X96.918 Y15.964
G01 F100 X96.892 Y16.217
G01 F100 X96.813 Y16.459
G01 F100 X96.686 Y16.679
G01 F100 X96.516 Y16.868
G01 F100 X96.310 Y17.017
G01 F100 X96.078 Y17.121
G01 F100 X95.830 Y17.173
G01 F100 X90.623 Y17.173
G00 Z3.000
G00  X55.021 Y13.955
G01 F100 Z0
G01 F100 Z-0.200
G01 F100 X54.619 Y13.870
G01 F100 X54.243 Y13.703
G01 F100 X53.921 Y13.468
G01 F100 X47.408 Y6.955
G01 F100 X39.771 Y6.955
G01 F100 X39.369 Y6.870
G01 F100 X38.993 Y6.703
G01 F100 X38.661 Y6.461
G01 F100 X38.386 Y6.155
G01 F100 X38.180 Y5.800
G01 F100 X38.053 Y5.409
G01 F100 X38.010 Y5.000
G01 F100 X38.053 Y4.591
G01 F100 X38.180 Y4.200
G01 F100 X38.386 Y3.845
G01 F100 X38.661 Y3.539
G01 F100 X38.993 Y3.298
G01 F100 X39.369 Y3.130
G01 F100 X39.771 Y3.045
G01 F100 X48.432 Y3.045
G01 F100 X48.834 Y3.130
G01 F100 X49.209 Y3.298
G01 F100 X49.532 Y3.532
G01 F100 X56.566 Y10.566
G01 F100 X56.817 Y10.845
G01 F100 X57.022 Y11.200
G01 F100 X57.149 Y11.591
G01 F100 X57.192 Y12.000
G01 F100 X57.149 Y12.409
G01 F100 X57.022 Y12.800
G01 F100 X56.817 Y13.155
G01 F100 X56.542 Y13.461
G01 F100 X56.209 Y13.703
G01 F100 X55.834 Y13.870
G01 F100 X55.432 Y13.955
G01 F100 X55.021 Y13.955
G00 Z3.000
G00  X75.021 Y13.955
G01 F100 Z0
G01 F100 Z-0.200
G01 F100 X74.619 Y13.870
G01 F100 X74.243 Y13.703
G01 F100 X73.921 Y13.468
G01 F100 X67.408 Y6.955
G01 F100 X63.771 Y6.955
G01 F100 X63.369 Y6.870
G01 F100 X62.993 Y6.703
G01 F100 X62.661 Y6.461
G01 F100 X62.386 Y6.155
G01 F100 X62.180 Y5.800
G01 F100 X62.053 Y5.409
G01 F100 X62.010 Y5.000
G01 F100 X62.053 Y4.591
G01 F100 X62.180 Y4.200
G01 F100 X62.386 Y3.845
G01 F100 X62.661 Y3.539
G01 F100 X62.993 Y3.298
G01 F100 X63.369 Y3.130
G01 F100 X63.771 Y3.045
G01 F100 X68.432 Y3.045
G01 F100 X68.834 Y3.130
G01 F100 X69.209 Y3.298
G01 F100 X69.532 Y3.532
G01 F100 X76.566 Y10.566
G01 F100 X76.817 Y10.845
G01 F100 X77.022 Y11.200
G01 F100 X77.149 Y11.591
G01 F100 X77.192 Y12.000
G01 F100 X77.149 Y12.409
G01 F100 X77.022 Y12.800
G01 F100 X76.817 Y13.155
G01 F100 X76.542 Y13.461
G01 F100 X76.209 Y13.703
G01 F100 X75.834 Y13.870
G01 F100 X75.432 Y13.955
G01 F100 X75.021 Y13.955
G00 Z3.000
G00  X6.655 Y12.436
G01 F100 Z0
G01 F100 Z-0.200
G01 F100 X5.537 Y12.198
G01 F100 X4.493 Y11.734
G01 F100 X3.569 Y11.062
G01 F100 X2.804 Y10.213
G01 F100 X2.233 Y9.223
G01 F100 X1.880 Y8.136
G01 F100 X1.760 Y7.000
G01 F100 X1.880 Y5.864
G01 F100 X2.233 Y4.777
G01 F100 X2.804 Y3.787
G01 F100 X3.569 Y2.938
G01 F100 X4.493 Y2.266
G01 F100 X5.537 Y1.802
G01 F100 X6.655 Y1.564
G01 F100 X7.798 Y1.564
G01 F100 X8.915 Y1.802
G01 F100 X9.959 Y2.266
G01 F100 X10.884 Y2.938
G01 F100 X11.648 Y3.787
G01 F100 X12.220 Y4.777
G01 F100 X12.573 Y5.864
G01 F100 X12.692 Y7.000
G01 F100 X12.573 Y8.136
G01 F100 X12.220 Y9.223
G01 F100 X11.648 Y10.213
G01 F100 X10.884 Y11.062
G01 F100 X9.959 Y11.734
G01 F100 X8.915 Y12.198
G01 F100 X7.798 Y12.436
G01 F100 X6.655 Y12.436
G00 Z3.000
G00  X92.655 Y12.436
G01 F100 Z0
G01 F100 Z-0.200
G01 F100 X91.537 Y12.198
G01 F100 X90.493 Y11.734
G01 F100 X89.569 Y11.062
G01 F100 X88.804 Y10.213
G01 F100 X88.233 Y9.223
G01 F100 X87.880 Y8.136
G01 F100 X87.760 Y7.000
G01 F100 X87.880 Y5.864
G01 F100 X88.233 Y4.777
G01 F100 X88.804 Y3.787
G01 F100 X89.569 Y2.938
G01 F100 X90.493 Y2.266
G01 F100 X91.537 Y1.802
G01 F100 X92.655 Y1.564
G01 F100 X93.797 Y1.564
G01 F100 X94.915 Y1.802
G01 F100 X95.959 Y2.266
G01 F100 X96.884 Y2.938
G01 F100 X97.648 Y3.787
G01 F100 X98.220 Y4.777
G01 F100 X98.573 Y5.864
G01 F100 X98.692 Y7.000
G01 F100 X98.573 Y8.136
G01 F100 X98.220 Y9.223
G01 F100 X97.648 Y10.213
G01 F100 X96.884 Y11.062
G01 F100 X95.959 Y11.734
G01 F100 X94.915 Y12.198
G01 F100 X93.797 Y12.436
G01 F100 X92.655 Y12.436
G00 Z3.000
G00 Z3.000
M05
M30
%