( PCB Contour - pass 3 )
( Generated by Carbide Copper )
( Material Size )
( X= 100.000, Y= 70.000, Z= 1.450 )
()
G17
G21
G54
G90
M03 S1000
G00 Z3.000
G00  X92.624 Y68.734
G01 F100 Z0
G01 F100 Z-0.200
G01 F100 X91.445 Y68.483
G01 F100 X90.344 Y67.993
G01 F100 X89.368 Y67.285
G01 F100 X88.562 Y66.389
G01 F100 X87.959 Y65.345
G01 F100 X87.587 Y64.199
G01 F100 X87.461 Y63.000
G01 F100 X87.587 Y61.801
G01 F100 X87.959 Y60.655
G01 F100 X88.562 Y59.611
G01 F100 X89.368 Y58.715
G01 F100 X90.344 Y58.007
G01 F100 X91.445 Y57.517
G01 F100 X92.624 Y57.266
G01 F100 X93.829 Y57.266
G01 F100 X95.008 Y57.517
G01 F100 X96.109 Y58.007
G01 F100 X97.084 Y58.715
G01 F100 X97.891 Y59.611
G01 F100 X98.493 Y60.655
G01 F100 X98.866 Y61.801
G01 F100 X98.992 Y63.000
G01 F100 X98.866 Y64.199
G01 F100 X98.493 Y65.345
G01 F100 X97.891 Y66.389
G01 F100 X97.084 Y67.285
G01 F100 X96.109 Y67.993
G01 F100 X95.008 Y68.483
G01 F100 X93.829 Y68.734
G01 F100 X92.624 Y68.734
G00 Z3.000
G00  X6.624 Y68.734
G01 F100 Z0
G01 F100 Z-0.200
G01 F100 X5.445 Y68.483
G01 F100 X4.344 Y67.993
G01 F100 X3.368 Y67.285
G01 F100 X2.562 Y66.389
G01 F100 X1.959 Y65.345
G01 F100 X1.587 Y64.199
G01 F100 X1.461 Y63.000
G01 F100 X1.587 Y61.801
G01 F100 X1.959 Y60.655
G01 F100 X2.562 Y59.611
G01 F100 X3.368 Y58.715
G01 F100 X4.344 Y58.007
G01 F100 X5.445 Y57.517
G01 F100 X6.624 Y57.266
G01 F100 X7.829 Y57.266
G01 F100 X9.008 Y57.517
G01 F100 X10.109 Y58.007
G01 F100 X11.084 Y58.715
G01 F100 X11.891 Y59.611
G01 F100 X12.493 Y60.655
G01 F100 X12.866 Y61.801
G01 F100 X12.992 Y63.000
G01 F100 X12.866 Y64.199
G01 F100 X12.493 Y65.345
G01 F100 X11.891 Y66.389
G01 F100 X11.084 Y67.285
G01 F100 X10.109 Y67.993
G01 F100 X9.008 Y68.483
G01 F100 X7.829 Y68.734
G01 F100 X6.624 Y68.734
G00 Z3.000
G00  X20.489 Y67.953
G01 F100 Z0
G01 F100 Z-0.200
G01 F100 X20.026 Y67.854
G01 F100 X19.594 Y67.662
G01 F100 X19.210 Y67.384
G01 F100 X18.893 Y67.032
G01 F100 X18.657 Y66.621
G01 F100 X18.510 Y66.171
G01 F100 X18.465 Y65.740
G01 F100 X18.465 Y62.260
G01 F100 X18.510 Y61.829
G01 F100 X18.657 Y61.379
G01 F100 X18.893 Y60.969
G01 F100 X19.210 Y60.616
G01 F100 X19.594 Y60.338
G01 F100 X20.026 Y60.146
G01 F100 X20.489 Y60.047
G01 F100 X25.064 Y60.047
G01 F100 X33.445 Y51.666
G01 F100 X33.445 Y51.246
G01 F100 X34.005 Y51.161
G01 F100 X34.174 Y51.038
G01 F100 X34.606 Y50.846
G01 F100 X34.841 Y50.796
G01 F100 X29.082 Y50.796
G01 F100 X28.994 Y50.777
G01 F100 X26.909 Y50.774
G01 F100 X26.912 Y52.431
G01 F100 X26.971 Y52.612
G01 F100 X27.012 Y53.000
G01 F100 X26.971 Y53.388
G01 F100 X26.850 Y53.759
G01 F100 X26.655 Y54.096
G01 F100 X26.394 Y54.386
G01 F100 X26.079 Y54.616
G01 F100 X25.723 Y54.774
G01 F100 X25.341 Y54.855
G01 F100 X24.951 Y54.855
G01 F100 X24.570 Y54.774
G01 F100 X24.214 Y54.616
G01 F100 X23.898 Y54.386
G01 F100 X23.637 Y54.096
G01 F100 X23.442 Y53.759
G01 F100 X23.322 Y53.388
G01 F100 X23.281 Y53.000
G01 F100 X23.322 Y52.609
G01 F100 X23.385 Y52.420
G01 F100 X23.385 Y50.768
G01 F100 X18.587 Y50.760
G01 F100 X18.587 Y53.441
G01 F100 X14.865 Y53.441
G01 F100 X14.865 Y50.756
G01 F100 X7.542 Y50.756
G01 F100 X7.181 Y50.679
G01 F100 X6.844 Y50.529
G01 F100 X6.561 Y50.324
G01 F100 X6.515 Y50.277
G01 F100 X6.611 Y50.443
G01 F100 X6.708 Y50.744
G01 F100 X6.737 Y51.020
G01 F100 X6.737 Y52.029
G01 F100 X7.861 Y52.029
G01 F100 X8.171 Y52.095
G01 F100 X8.460 Y52.223
G01 F100 X8.716 Y52.410
G01 F100 X8.928 Y52.645
G01 F100 X9.087 Y52.919
G01 F100 X9.184 Y53.221
G01 F100 X9.218 Y53.536
G01 F100 X9.184 Y53.851
G01 F100 X9.087 Y54.152
G01 F100 X8.928 Y54.426
G01 F100 X8.716 Y54.662
G01 F100 X8.460 Y54.848
G01 F100 X8.171 Y54.977
G01 F100 X7.861 Y55.043
G01 F100 X6.737 Y55.043
G01 F100 X6.737 Y56.052
G01 F100 X6.708 Y56.327
G01 F100 X6.611 Y56.628
G01 F100 X6.452 Y56.903
G01 F100 X6.240 Y57.138
G01 F100 X5.984 Y57.324
G01 F100 X5.695 Y57.453
G01 F100 X5.385 Y57.519
G01 F100 X5.068 Y57.519
G01 F100 X4.758 Y57.453
G01 F100 X4.469 Y57.324
G01 F100 X4.212 Y57.138
G01 F100 X4.000 Y56.903
G01 F100 X3.842 Y56.628
G01 F100 X3.744 Y56.327
G01 F100 X3.715 Y56.052
G01 F100 X3.715 Y55.043
G01 F100 X2.591 Y55.043
G01 F100 X2.282 Y54.977
G01 F100 X1.992 Y54.848
G01 F100 X1.736 Y54.662
G01 F100 X1.524 Y54.427
G01 F100 X1.366 Y54.152
G01 F100 X1.268 Y53.851
G01 F100 X1.235 Y53.536
G01 F100 X1.268 Y53.221
G01 F100 X1.366 Y52.919
G01 F100 X1.524 Y52.645
G01 F100 X1.736 Y52.410
G01 F100 X1.992 Y52.223
G01 F100 X2.282 Y52.095
G01 F100 X2.592 Y52.029
G01 F100 X3.715 Y52.029
G01 F100 X3.715 Y51.020
G01 F100 X3.744 Y50.745
G01 F100 X3.842 Y50.443
G01 F100 X4.000 Y50.169
G01 F100 X4.212 Y49.933
G01 F100 X4.469 Y49.747
G01 F100 X4.758 Y49.618
G01 F100 X5.068 Y49.553
G01 F100 X5.385 Y49.553
G01 F100 X5.694 Y49.618
G01 F100 X5.984 Y49.747
G01 F100 X5.987 Y49.749
G01 F100 X4.005 Y47.767
G01 F100 X3.798 Y47.538
G01 F100 X3.613 Y47.218
G01 F100 X3.500 Y46.867
G01 F100 X3.465 Y46.540
G01 F100 X3.465 Y37.485
G01 F100 X3.500 Y37.158
G01 F100 X3.613 Y36.807
G01 F100 X3.615 Y36.804
G01 F100 X3.615 Y35.914
G01 F100 X3.735 Y35.914
G01 F100 X3.613 Y35.703
G01 F100 X3.500 Y35.352
G01 F100 X3.461 Y34.985
G01 F100 X3.500 Y34.618
G01 F100 X3.613 Y34.267
G01 F100 X3.798 Y33.947
G01 F100 X4.007 Y33.715
G01 F100 X3.798 Y33.483
G01 F100 X3.613 Y33.163
G01 F100 X3.500 Y32.812
G01 F100 X3.465 Y32.485
G01 F100 X3.465 Y23.460
G01 F100 X3.500 Y23.133
G01 F100 X3.613 Y22.782
G01 F100 X3.798 Y22.462
G01 F100 X4.005 Y22.233
G01 F100 X5.254 Y20.983
G01 F100 X5.103 Y20.983
G01 F100 X4.793 Y20.917
G01 F100 X4.504 Y20.789
G01 F100 X4.248 Y20.602
G01 F100 X4.036 Y20.367
G01 F100 X3.878 Y20.093
G01 F100 X3.780 Y19.791
G01 F100 X3.751 Y19.516
G01 F100 X3.751 Y14.484
G01 F100 X3.780 Y14.209
G01 F100 X3.878 Y13.908
G01 F100 X4.036 Y13.633
G01 F100 X4.248 Y13.398
G01 F100 X4.504 Y13.211
G01 F100 X4.793 Y13.083
G01 F100 X5.103 Y13.017
G01 F100 X5.420 Y13.017
G01 F100 X5.730 Y13.083
G01 F100 X6.019 Y13.211
G01 F100 X6.276 Y13.398
G01 F100 X6.488 Y13.633
G01 F100 X6.646 Y13.908
G01 F100 X6.744 Y14.209
G01 F100 X6.773 Y14.484
G01 F100 X6.773 Y19.516
G01 F100 X6.772 Y19.523
G01 F100 X6.844 Y19.471
G01 F100 X7.181 Y19.321
G01 F100 X7.542 Y19.244
G01 F100 X14.962 Y19.244
G01 F100 X14.961 Y18.910
G01 F100 X14.902 Y18.728
G01 F100 X14.861 Y18.340
G01 F100 X14.902 Y17.952
G01 F100 X15.022 Y17.581
G01 F100 X15.217 Y17.244
G01 F100 X15.478 Y16.954
G01 F100 X15.794 Y16.724
G01 F100 X16.150 Y16.566
G01 F100 X16.531 Y16.485
G01 F100 X16.921 Y16.485
G01 F100 X17.303 Y16.566
G01 F100 X17.659 Y16.724
G01 F100 X17.974 Y16.954
G01 F100 X18.235 Y17.244
G01 F100 X18.430 Y17.581
G01 F100 X18.551 Y17.952
G01 F100 X18.592 Y18.340
G01 F100 X18.550 Y18.731
G01 F100 X18.487 Y18.920
G01 F100 X18.487 Y19.244
G01 F100 X23.465 Y19.244
G01 F100 X23.465 Y18.861
G01 F100 X23.365 Y18.861
G01 F100 X23.365 Y15.139
G01 F100 X27.087 Y15.139
G01 F100 X27.087 Y18.861
G01 F100 X26.987 Y18.861
G01 F100 X26.987 Y19.244
G01 F100 X34.411 Y19.244
G01 F100 X34.772 Y19.321
G01 F100 X35.109 Y19.471
G01 F100 X35.391 Y19.676
G01 F100 X37.489 Y21.774
G01 F100 X37.672 Y21.774
G01 F100 X35.151 Y19.253
G01 F100 X35.149 Y19.253
G01 F100 X34.686 Y19.154
G01 F100 X34.253 Y18.962
G01 F100 X33.887 Y18.695
G01 F100 X25.144 Y9.953
G01 F100 X20.489 Y9.953
G01 F100 X20.026 Y9.854
G01 F100 X19.594 Y9.662
G01 F100 X19.210 Y9.384
G01 F100 X18.893 Y9.032
G01 F100 X18.657 Y8.621
G01 F100 X18.510 Y8.171
G01 F100 X18.465 Y7.740
G01 F100 X18.465 Y4.260
G01 F100 X18.510 Y3.829
G01 F100 X18.657 Y3.379
G01 F100 X18.893 Y2.969
G01 F100 X19.210 Y2.616
G01 F100 X19.594 Y2.338
G01 F100 X20.026 Y2.146
G01 F100 X20.489 Y2.047
G01 F100 X20.963 Y2.047
G01 F100 X21.426 Y2.146
G01 F100 X21.859 Y2.338
G01 F100 X22.242 Y2.616
G01 F100 X22.559 Y2.969
G01 F100 X22.796 Y3.379
G01 F100 X22.942 Y3.829
G01 F100 X22.987 Y4.260
G01 F100 X22.987 Y5.447
G01 F100 X26.323 Y5.447
G01 F100 X26.786 Y5.546
G01 F100 X27.219 Y5.738
G01 F100 X27.586 Y6.005
G01 F100 X36.942 Y15.361
G01 F100 X37.219 Y15.668
G01 F100 X37.456 Y16.079
G01 F100 X37.602 Y16.529
G01 F100 X37.625 Y16.751
G01 F100 X40.109 Y19.234
G01 F100 X43.065 Y19.234
G01 F100 X43.065 Y16.736
G01 F100 X46.587 Y16.736
G01 F100 X46.587 Y17.192
G01 F100 X47.558 Y17.192
G01 F100 X47.817 Y17.246
G01 F100 X48.059 Y17.354
G01 F100 X48.257 Y17.498
G01 F100 X52.613 Y21.854
G01 F100 X52.750 Y22.006
G01 F100 X52.882 Y22.236
G01 F100 X52.964 Y22.487
G01 F100 X52.987 Y22.710
G01 F100 X52.987 Y27.540
G01 F100 X52.964 Y27.763
G01 F100 X52.882 Y28.015
G01 F100 X52.750 Y28.244
G01 F100 X52.573 Y28.440
G01 F100 X52.359 Y28.596
G01 F100 X52.117 Y28.704
G01 F100 X51.858 Y28.758
G01 F100 X50.187 Y28.758
G01 F100 X50.187 Y32.235
G01 F100 X62.965 Y32.235
G01 F100 X62.965 Y28.287
G01 F100 X63.010 Y27.856
G01 F100 X63.158 Y27.401
G01 F100 X63.265 Y27.221
G01 F100 X63.265 Y26.366
G01 F100 X64.092 Y26.366
G01 F100 X64.093 Y26.365
G01 F100 X64.526 Y26.172
G01 F100 X64.989 Y26.074
G01 F100 X65.463 Y26.074
G01 F100 X65.926 Y26.172
G01 F100 X66.359 Y26.365
G01 F100 X66.360 Y26.366
G01 F100 X67.156 Y26.366
G01 F100 X67.192 Y27.226
G01 F100 X67.296 Y27.405
G01 F100 X67.442 Y27.856
G01 F100 X67.487 Y28.287
G01 F100 X67.487 Y32.235
G01 F100 X73.530 Y32.235
G01 F100 X73.601 Y32.250
G01 F100 X82.075 Y32.250
G01 F100 X87.465 Y26.860
G01 F100 X87.465 Y19.239
G01 F100 X98.987 Y19.239
G01 F100 X98.987 Y30.761
G01 F100 X91.366 Y30.761
G01 F100 X85.060 Y37.067
G01 F100 X84.609 Y37.395
G01 F100 X84.081 Y37.630
G01 F100 X83.515 Y37.750
G01 F100 X79.477 Y37.750
G01 F100 X79.926 Y37.846
G01 F100 X80.363 Y38.040
G01 F100 X80.496 Y38.139
G01 F100 X81.087 Y38.139
G01 F100 X81.087 Y38.718
G01 F100 X81.296 Y39.079
G01 F100 X81.442 Y39.529
G01 F100 X81.487 Y39.960
G01 F100 X81.487 Y42.066
G01 F100 X81.671 Y42.250
G01 F100 X87.465 Y42.250
G01 F100 X87.465 Y39.239
G01 F100 X98.987 Y39.239
G01 F100 X98.987 Y50.761
G01 F100 X87.465 Y50.761
G01 F100 X87.465 Y47.750
G01 F100 X81.671 Y47.750
G01 F100 X81.487 Y47.934
G01 F100 X81.487 Y49.460
G01 F100 X81.442 Y49.891
G01 F100 X81.296 Y50.341
G01 F100 X81.059 Y50.752
G01 F100 X80.742 Y51.104
G01 F100 X80.359 Y51.382
G01 F100 X79.926 Y51.574
G01 F100 X79.463 Y51.673
G01 F100 X78.989 Y51.673
G01 F100 X78.526 Y51.574
G01 F100 X78.094 Y51.382
G01 F100 X77.710 Y51.104
G01 F100 X77.394 Y50.752
G01 F100 X77.157 Y50.341
G01 F100 X77.010 Y49.891
G01 F100 X76.965 Y49.460
G01 F100 X76.965 Y39.960
G01 F100 X77.010 Y39.529
G01 F100 X77.157 Y39.079
G01 F100 X77.365 Y38.718
G01 F100 X77.365 Y38.246
G01 F100 X77.925 Y38.161
G01 F100 X78.094 Y38.038
G01 F100 X78.526 Y37.846
G01 F100 X78.975 Y37.750
G01 F100 X72.437 Y37.750
G01 F100 X72.367 Y37.735
G01 F100 X67.487 Y37.735
G01 F100 X67.487 Y41.749
G01 F100 X67.442 Y42.180
G01 F100 X67.296 Y42.631
G01 F100 X67.059 Y43.041
G01 F100 X66.742 Y43.393
G01 F100 X66.359 Y43.671
G01 F100 X65.926 Y43.864
G01 F100 X65.463 Y43.962
G01 F100 X64.989 Y43.962
G01 F100 X64.526 Y43.864
G01 F100 X64.093 Y43.671
G01 F100 X63.710 Y43.393
G01 F100 X63.394 Y43.041
G01 F100 X63.157 Y42.631
G01 F100 X63.010 Y42.180
G01 F100 X62.965 Y41.749
G01 F100 X62.965 Y37.735
G01 F100 X49.962 Y37.735
G01 F100 X49.962 Y38.639
G01 F100 X50.162 Y38.639
G01 F100 X50.162 Y43.361
G01 F100 X49.962 Y43.361
G01 F100 X49.962 Y43.639
G01 F100 X50.162 Y43.639
G01 F100 X50.162 Y48.361
G01 F100 X49.962 Y48.361
G01 F100 X49.962 Y48.565
G01 F100 X49.939 Y48.788
G01 F100 X49.857 Y49.040
G01 F100 X49.725 Y49.269
G01 F100 X49.588 Y49.421
G01 F100 X49.017 Y49.992
G01 F100 X48.819 Y50.136
G01 F100 X48.577 Y50.244
G01 F100 X48.318 Y50.298
G01 F100 X46.056 Y50.298
G01 F100 X46.045 Y50.310
G01 F100 X46.254 Y50.542
G01 F100 X46.439 Y50.862
G01 F100 X46.479 Y50.985
G01 F100 X46.507 Y51.048
G01 F100 X46.522 Y51.118
G01 F100 X46.553 Y51.213
G01 F100 X46.564 Y51.314
G01 F100 X46.582 Y51.400
G01 F100 X46.582 Y51.489
G01 F100 X46.592 Y51.580
G01 F100 X46.582 Y51.671
G01 F100 X46.582 Y51.760
G01 F100 X46.564 Y51.846
G01 F100 X46.553 Y51.947
G01 F100 X46.522 Y52.042
G01 F100 X46.507 Y52.112
G01 F100 X46.479 Y52.175
G01 F100 X46.439 Y52.298
G01 F100 X46.254 Y52.618
G01 F100 X46.008 Y52.892
G01 F100 X45.709 Y53.109
G01 F100 X45.372 Y53.259
G01 F100 X45.011 Y53.336
G01 F100 X42.879 Y53.336
G01 F100 X41.891 Y54.324
G01 F100 X41.609 Y54.529
G01 F100 X41.272 Y54.679
G01 F100 X40.912 Y54.756
G01 F100 X37.081 Y54.767
G01 F100 X36.672 Y54.829
G01 F100 X27.506 Y63.995
G01 F100 X27.139 Y64.262
G01 F100 X26.706 Y64.454
G01 F100 X26.243 Y64.553
G01 F100 X22.987 Y64.553
G01 F100 X22.987 Y65.740
G01 F100 X22.942 Y66.171
G01 F100 X22.796 Y66.621
G01 F100 X22.559 Y67.032
G01 F100 X22.242 Y67.384
G01 F100 X21.859 Y67.662
G01 F100 X21.426 Y67.854
G01 F100 X20.963 Y67.953
G01 F100 X20.489 Y67.953
G00 Z3.000
G00  X33.989 Y67.953
G01 F100 Z0
G01 F100 Z-0.200
G01 F100 X33.526 Y67.854
G01 F100 X33.094 Y67.662
G01 F100 X32.710 Y67.384
G01 F100 X32.394 Y67.032
G01 F100 X32.157 Y66.621
G01 F100 X32.010 Y66.171
G01 F100 X31.965 Y65.740
G01 F100 X31.965 Y61.960
G01 F100 X32.010 Y61.529
G01 F100 X32.157 Y61.079
G01 F100 X32.394 Y60.669
G01 F100 X32.670 Y60.361
G01 F100 X36.727 Y56.305
G01 F100 X37.093 Y56.038
G01 F100 X37.526 Y55.846
G01 F100 X37.989 Y55.747
G01 F100 X45.284 Y55.747
G01 F100 X53.518 Y47.514
G01 F100 X53.884 Y47.247
G01 F100 X54.317 Y47.055
G01 F100 X54.780 Y46.956
G01 F100 X65.463 Y46.956
G01 F100 X65.926 Y47.055
G01 F100 X66.359 Y47.247
G01 F100 X66.360 Y47.248
G01 F100 X67.156 Y47.248
G01 F100 X67.192 Y48.109
G01 F100 X67.296 Y48.288
G01 F100 X67.442 Y48.738
G01 F100 X67.492 Y49.209
G01 F100 X67.442 Y49.680
G01 F100 X67.294 Y50.135
G01 F100 X67.187 Y50.315
G01 F100 X67.187 Y51.170
G01 F100 X66.360 Y51.170
G01 F100 X66.359 Y51.171
G01 F100 X65.926 Y51.364
G01 F100 X65.463 Y51.462
G01 F100 X62.237 Y51.462
G01 F100 X62.237 Y63.564
G01 F100 X62.460 Y63.316
G01 F100 X62.844 Y63.038
G01 F100 X63.276 Y62.846
G01 F100 X63.739 Y62.747
G01 F100 X67.034 Y62.747
G01 F100 X73.477 Y56.305
G01 F100 X73.843 Y56.038
G01 F100 X74.276 Y55.846
G01 F100 X74.739 Y55.747
G01 F100 X75.213 Y55.747
G01 F100 X75.676 Y55.846
G01 F100 X76.109 Y56.038
G01 F100 X76.492 Y56.316
G01 F100 X76.809 Y56.669
G01 F100 X77.046 Y57.079
G01 F100 X77.192 Y57.529
G01 F100 X77.242 Y58.000
G01 F100 X77.192 Y58.471
G01 F100 X77.046 Y58.921
G01 F100 X76.809 Y59.332
G01 F100 X76.532 Y59.639
G01 F100 X69.476 Y66.695
G01 F100 X69.109 Y66.962
G01 F100 X68.676 Y67.154
G01 F100 X68.213 Y67.253
G01 F100 X63.739 Y67.253
G01 F100 X63.276 Y67.154
G01 F100 X62.844 Y66.962
G01 F100 X62.460 Y66.684
G01 F100 X62.144 Y66.332
G01 F100 X61.976 Y66.042
G01 F100 X61.809 Y66.332
G01 F100 X61.492 Y66.684
G01 F100 X61.109 Y66.962
G01 F100 X60.676 Y67.154
G01 F100 X60.213 Y67.253
G01 F100 X59.739 Y67.253
G01 F100 X59.276 Y67.154
G01 F100 X58.844 Y66.962
G01 F100 X58.460 Y66.684
G01 F100 X58.144 Y66.332
G01 F100 X57.907 Y65.921
G01 F100 X57.760 Y65.471
G01 F100 X57.715 Y65.040
G01 F100 X57.715 Y51.462
G01 F100 X55.959 Y51.462
G01 F100 X47.726 Y59.695
G01 F100 X47.359 Y59.962
G01 F100 X46.926 Y60.154
G01 F100 X46.463 Y60.253
G01 F100 X39.168 Y60.253
G01 F100 X36.487 Y62.934
G01 F100 X36.487 Y65.740
G01 F100 X36.442 Y66.171
G01 F100 X36.296 Y66.621
G01 F100 X36.059 Y67.032
G01 F100 X35.742 Y67.384
G01 F100 X35.359 Y67.662
G01 F100 X34.926 Y67.854
G01 F100 X34.463 Y67.953
G01 F100 X33.989 Y67.953
G00 Z3.000
G00  X39.739 Y67.253
G01 F100 Z0
G01 F100 Z-0.200
G01 F100 X39.276 Y67.154
G01 F100 X38.844 Y66.962
G01 F100 X38.460 Y66.684
G01 F100 X38.144 Y66.332
G01 F100 X37.907 Y65.921
G01 F100 X37.760 Y65.471
G01 F100 X37.711 Y65.000
G01 F100 X37.760 Y64.529
G01 F100 X37.907 Y64.079
G01 F100 X38.144 Y63.669
G01 F100 X38.460 Y63.316
G01 F100 X38.844 Y63.038
G01 F100 X39.276 Y62.846
G01 F100 X39.739 Y62.747
G01 F100 X47.034 Y62.747
G01 F100 X53.477 Y56.305
G01 F100 X53.843 Y56.038
G01 F100 X54.276 Y55.846
G01 F100 X54.739 Y55.747
G01 F100 X55.213 Y55.747
G01 F100 X55.676 Y55.846
G01 F100 X56.109 Y56.038
G01 F100 X56.492 Y56.316
G01 F100 X56.809 Y56.669
G01 F100 X57.046 Y57.079
G01 F100 X57.192 Y57.529
G01 F100 X57.242 Y58.000
G01 F100 X57.192 Y58.471
G01 F100 X57.046 Y58.921
G01 F100 X56.809 Y59.332
G01 F100 X56.532 Y59.639
G01 F100 X49.476 Y66.695
G01 F100 X49.109 Y66.962
G01 F100 X48.676 Y67.154
G01 F100 X48.213 Y67.253
G01 F100 X39.739 Y67.253
G00 Z3.000
G00  X83.739 Y67.253
G01 F100 Z0
G01 F100 Z-0.200
G01 F100 X83.276 Y67.154
G01 F100 X82.843 Y66.962
G01 F100 X82.477 Y66.695
G01 F100 X77.670 Y61.889
G01 F100 X77.394 Y61.582
G01 F100 X77.157 Y61.171
G01 F100 X77.010 Y60.721
G01 F100 X76.965 Y60.290
G01 F100 X76.965 Y59.540
G01 F100 X77.010 Y59.109
G01 F100 X77.157 Y58.659
G01 F100 X77.365 Y58.298
G01 F100 X77.365 Y57.826
G01 F100 X77.925 Y57.741
G01 F100 X78.094 Y57.618
G01 F100 X78.526 Y57.426
G01 F100 X78.989 Y57.327
G01 F100 X79.463 Y57.327
G01 F100 X79.926 Y57.426
G01 F100 X80.363 Y57.620
G01 F100 X80.496 Y57.719
G01 F100 X81.087 Y57.719
G01 F100 X81.087 Y58.298
G01 F100 X81.296 Y58.659
G01 F100 X81.442 Y59.109
G01 F100 X81.461 Y59.290
G01 F100 X85.532 Y63.361
G01 F100 X85.809 Y63.669
G01 F100 X86.046 Y64.079
G01 F100 X86.192 Y64.529
G01 F100 X86.242 Y65.000
G01 F100 X86.192 Y65.471
G01 F100 X86.046 Y65.921
G01 F100 X85.809 Y66.332
G01 F100 X85.492 Y66.684
G01 F100 X85.109 Y66.962
G01 F100 X84.676 Y67.154
G01 F100 X84.213 Y67.253
G01 F100 X83.739 Y67.253
G00 Z3.000
G00  X92.496 Y56.078
G01 F100 Z0
G01 F100 Z-0.200
G01 F100 X92.186 Y56.013
G01 F100 X91.955 Y55.909
G01 F100 X91.121 Y55.493
G01 F100 X90.895 Y55.328
G01 F100 X90.458 Y54.891
G01 F100 X90.286 Y54.700
G01 F100 X90.127 Y54.426
G01 F100 X90.030 Y54.125
G01 F100 X89.996 Y53.809
G01 F100 X90.030 Y53.495
G01 F100 X90.127 Y53.193
G01 F100 X90.286 Y52.919
G01 F100 X90.498 Y52.683
G01 F100 X90.754 Y52.497
G01 F100 X91.044 Y52.368
G01 F100 X91.354 Y52.303
G01 F100 X91.670 Y52.303
G01 F100 X91.980 Y52.368
G01 F100 X92.270 Y52.497
G01 F100 X92.510 Y52.672
G01 F100 X92.699 Y52.861
G01 F100 X93.479 Y52.472
G01 F100 X93.710 Y52.368
G01 F100 X94.020 Y52.303
G01 F100 X94.337 Y52.303
G01 F100 X94.647 Y52.368
G01 F100 X94.879 Y52.472
G01 F100 X95.712 Y52.888
G01 F100 X95.938 Y53.053
G01 F100 X96.376 Y53.490
G01 F100 X96.547 Y53.681
G01 F100 X96.706 Y53.955
G01 F100 X96.804 Y54.256
G01 F100 X96.837 Y54.571
G01 F100 X96.804 Y54.886
G01 F100 X96.706 Y55.188
G01 F100 X96.547 Y55.462
G01 F100 X96.335 Y55.698
G01 F100 X96.079 Y55.884
G01 F100 X95.790 Y56.013
G01 F100 X95.480 Y56.078
G01 F100 X95.163 Y56.078
G01 F100 X94.853 Y56.013
G01 F100 X94.564 Y55.884
G01 F100 X94.324 Y55.709
G01 F100 X94.134 Y55.520
G01 F100 X93.355 Y55.909
G01 F100 X93.123 Y56.013
G01 F100 X92.813 Y56.078
G01 F100 X92.496 Y56.078
G00 Z3.000
G00  X37.098 Y51.244
G01 F100 Z0
G01 F100 Z-0.200
G01 F100 X39.993 Y51.244
G01 F100 X40.442 Y50.796
G01 F100 X35.771 Y50.796
G01 F100 X36.006 Y50.846
G01 F100 X36.443 Y51.040
G01 F100 X36.576 Y51.139
G01 F100 X37.086 Y51.139
G01 F100 X37.098 Y51.244
G00 Z3.000
G00  X46.587 Y47.782
G01 F100 Z0
G01 F100 Z-0.200
G01 F100 X47.240 Y47.782
G01 F100 X47.240 Y44.733
G01 F100 X46.087 Y44.733
G01 F100 X46.087 Y44.786
G01 F100 X46.587 Y44.786
G01 F100 X46.587 Y47.782
G00 Z3.000
G00  X35.737 Y47.284
G01 F100 Z0
G01 F100 Z-0.200
G01 F100 X43.065 Y47.284
G01 F100 X43.065 Y44.786
G01 F100 X43.565 Y44.786
G01 F100 X43.565 Y43.860
G01 F100 X43.589 Y43.637
G01 F100 X43.670 Y43.385
G01 F100 X43.803 Y43.156
G01 F100 X43.939 Y43.004
G01 F100 X44.421 Y42.523
G01 F100 X44.619 Y42.379
G01 F100 X44.860 Y42.272
G01 F100 X45.119 Y42.217
G01 F100 X47.240 Y42.217
G01 F100 X47.240 Y38.639
G01 F100 X47.440 Y38.639
G01 F100 X47.440 Y37.735
G01 F100 X35.737 Y37.735
G01 F100 X35.737 Y43.113
G01 F100 X35.757 Y43.175
G01 F100 X35.792 Y43.500
G01 F100 X35.757 Y43.826
G01 F100 X35.721 Y43.939
G01 F100 X35.787 Y43.939
G01 F100 X35.787 Y47.061
G01 F100 X35.737 Y47.061
G01 F100 X35.737 Y47.284
G00 Z3.000
G00  X29.519 Y47.284
G01 F100 Z0
G01 F100 Z-0.200
G01 F100 X32.715 Y47.284
G01 F100 X32.715 Y47.061
G01 F100 X32.665 Y47.061
G01 F100 X32.665 Y43.939
G01 F100 X32.732 Y43.939
G01 F100 X32.695 Y43.826
G01 F100 X32.661 Y43.500
G01 F100 X32.695 Y43.175
G01 F100 X32.715 Y43.113
G01 F100 X32.715 Y37.735
G01 F100 X26.987 Y37.735
G01 F100 X26.987 Y40.672
G01 F100 X26.953 Y40.999
G01 F100 X26.839 Y41.350
G01 F100 X26.654 Y41.670
G01 F100 X26.408 Y41.944
G01 F100 X26.109 Y42.161
G01 F100 X25.772 Y42.311
G01 F100 X25.411 Y42.388
G01 F100 X25.042 Y42.388
G01 F100 X24.681 Y42.311
G01 F100 X24.344 Y42.161
G01 F100 X24.045 Y41.944
G01 F100 X23.798 Y41.670
G01 F100 X23.613 Y41.350
G01 F100 X23.500 Y40.999
G01 F100 X23.465 Y40.672
G01 F100 X23.465 Y37.735
G01 F100 X18.488 Y37.735
G01 F100 X18.492 Y40.851
G01 F100 X18.551 Y41.032
G01 F100 X18.592 Y41.420
G01 F100 X18.551 Y41.808
G01 F100 X18.430 Y42.179
G01 F100 X18.235 Y42.516
G01 F100 X17.974 Y42.806
G01 F100 X17.659 Y43.035
G01 F100 X17.303 Y43.194
G01 F100 X16.921 Y43.275
G01 F100 X16.531 Y43.275
G01 F100 X16.150 Y43.194
G01 F100 X15.794 Y43.035
G01 F100 X15.478 Y42.806
G01 F100 X15.217 Y42.516
G01 F100 X15.022 Y42.179
G01 F100 X14.902 Y41.808
G01 F100 X14.861 Y41.420
G01 F100 X14.902 Y41.029
G01 F100 X14.965 Y40.840
G01 F100 X14.965 Y37.735
G01 F100 X12.187 Y37.735
G01 F100 X12.187 Y42.361
G01 F100 X11.987 Y42.361
G01 F100 X11.987 Y42.925
G01 F100 X12.074 Y43.021
G01 F100 X12.248 Y43.323
G01 F100 X12.355 Y43.654
G01 F100 X12.392 Y44.000
G01 F100 X12.355 Y44.346
G01 F100 X12.248 Y44.677
G01 F100 X12.131 Y44.879
G01 F100 X12.387 Y44.879
G01 F100 X12.387 Y45.971
G01 F100 X12.453 Y46.173
G01 F100 X12.487 Y46.500
G01 F100 X12.487 Y47.244
G01 F100 X16.623 Y47.244
G01 F100 X16.838 Y47.245
G01 F100 X23.465 Y47.256
G01 F100 X23.465 Y43.871
G01 F100 X26.987 Y43.871
G01 F100 X26.987 Y47.262
G01 F100 X29.433 Y47.266
G01 F100 X29.519 Y47.284
G00 Z3.000
G00  X8.459 Y47.244
G01 F100 Z0
G01 F100 Z-0.200
G01 F100 X8.965 Y47.244
G01 F100 X8.965 Y46.500
G01 F100 X9.000 Y46.173
G01 F100 X9.065 Y45.971
G01 F100 X9.065 Y44.879
G01 F100 X9.321 Y44.879
G01 F100 X9.205 Y44.677
G01 F100 X9.097 Y44.346
G01 F100 X9.061 Y44.000
G01 F100 X9.097 Y43.654
G01 F100 X9.205 Y43.323
G01 F100 X9.379 Y43.021
G01 F100 X9.465 Y42.925
G01 F100 X9.465 Y42.361
G01 F100 X9.265 Y42.361
G01 F100 X9.265 Y37.735
G01 F100 X8.952 Y37.735
G01 F100 X8.386 Y37.615
G01 F100 X7.858 Y37.380
G01 F100 X7.391 Y37.040
G01 F100 X7.121 Y36.741
G01 F100 X6.837 Y36.741
G01 F100 X6.837 Y36.804
G01 F100 X6.839 Y36.807
G01 F100 X6.953 Y37.158
G01 F100 X6.987 Y37.485
G01 F100 X6.987 Y45.772
G01 F100 X8.459 Y47.244
G00 Z3.000
G00  X6.801 Y33.229
G01 F100 Z0
G01 F100 Z-0.200
G01 F100 X7.121 Y33.229
G01 F100 X7.391 Y32.930
G01 F100 X7.858 Y32.590
G01 F100 X8.386 Y32.355
G01 F100 X8.952 Y32.235
G01 F100 X9.265 Y32.235
G01 F100 X9.265 Y27.661
G01 F100 X9.065 Y27.661
G01 F100 X9.065 Y24.339
G01 F100 X9.206 Y24.339
G01 F100 X9.113 Y24.178
G01 F100 X9.000 Y23.827
G01 F100 X8.965 Y23.500
G01 F100 X8.965 Y22.756
G01 F100 X8.459 Y22.756
G01 F100 X6.987 Y24.228
G01 F100 X6.987 Y32.485
G01 F100 X6.953 Y32.812
G01 F100 X6.839 Y33.163
G01 F100 X6.801 Y33.229
G00 Z3.000
G00  X35.737 Y32.235
G01 F100 Z0
G01 F100 Z-0.200
G01 F100 X47.265 Y32.235
G01 F100 X47.265 Y28.139
G01 F100 X47.465 Y28.139
G01 F100 X47.465 Y26.861
G01 F100 X47.265 Y26.861
G01 F100 X47.265 Y24.788
G01 F100 X46.056 Y24.788
G01 F100 X46.008 Y24.842
G01 F100 X45.709 Y25.059
G01 F100 X45.372 Y25.209
G01 F100 X45.011 Y25.286
G01 F100 X36.572 Y25.286
G01 F100 X36.211 Y25.209
G01 F100 X35.873 Y25.059
G01 F100 X35.787 Y24.996
G01 F100 X35.787 Y28.061
G01 F100 X35.737 Y28.061
G01 F100 X35.737 Y32.235
G00 Z3.000
G00  X12.187 Y32.235
G01 F100 Z0
G01 F100 Z-0.200
G01 F100 X14.965 Y32.235
G01 F100 X14.965 Y30.361
G01 F100 X14.865 Y30.361
G01 F100 X14.865 Y26.639
G01 F100 X18.587 Y26.639
G01 F100 X18.587 Y30.361
G01 F100 X18.487 Y30.361
G01 F100 X18.487 Y32.235
G01 F100 X23.465 Y32.235
G01 F100 X23.465 Y27.945
G01 F100 X26.987 Y27.945
G01 F100 X26.987 Y32.235
G01 F100 X32.715 Y32.235
G01 F100 X32.715 Y28.061
G01 F100 X32.665 Y28.061
G01 F100 X32.665 Y24.939
G01 F100 X32.732 Y24.939
G01 F100 X32.695 Y24.826
G01 F100 X32.661 Y24.500
G01 F100 X32.695 Y24.175
G01 F100 X32.715 Y24.113
G01 F100 X32.715 Y22.756
G01 F100 X26.987 Y22.756
G01 F100 X26.987 Y24.908
G01 F100 X26.953 Y25.235
G01 F100 X26.839 Y25.586
G01 F100 X26.654 Y25.905
G01 F100 X26.408 Y26.180
G01 F100 X26.109 Y26.397
G01 F100 X25.772 Y26.547
G01 F100 X25.411 Y26.623
G01 F100 X25.042 Y26.623
G01 F100 X24.681 Y26.547
G01 F100 X24.344 Y26.397
G01 F100 X24.045 Y26.180
G01 F100 X23.798 Y25.905
G01 F100 X23.613 Y25.586
G01 F100 X23.500 Y25.235
G01 F100 X23.465 Y24.908
G01 F100 X23.465 Y22.756
G01 F100 X12.487 Y22.756
G01 F100 X12.487 Y23.500
G01 F100 X12.453 Y23.827
G01 F100 X12.339 Y24.178
G01 F100 X12.246 Y24.339
G01 F100 X12.387 Y24.339
G01 F100 X12.387 Y27.661
G01 F100 X12.187 Y27.661
G01 F100 X12.187 Y32.235
G00 Z3.000
G00  X78.989 Y32.093
G01 F100 Z0
G01 F100 Z-0.200
G01 F100 X78.526 Y31.994
G01 F100 X78.094 Y31.802
G01 F100 X77.710 Y31.524
G01 F100 X77.394 Y31.172
G01 F100 X77.157 Y30.761
G01 F100 X77.010 Y30.311
G01 F100 X76.965 Y29.880
G01 F100 X76.965 Y13.436
G01 F100 X76.742 Y13.684
G01 F100 X76.359 Y13.962
G01 F100 X75.926 Y14.154
G01 F100 X75.463 Y14.253
G01 F100 X74.989 Y14.253
G01 F100 X74.526 Y14.154
G01 F100 X74.093 Y13.962
G01 F100 X73.727 Y13.695
G01 F100 X67.284 Y7.253
G01 F100 X63.739 Y7.253
G01 F100 X63.276 Y7.154
G01 F100 X62.844 Y6.962
G01 F100 X62.460 Y6.684
G01 F100 X62.237 Y6.436
G01 F100 X62.237 Y18.574
G01 F100 X65.463 Y18.574
G01 F100 X65.926 Y18.672
G01 F100 X66.359 Y18.865
G01 F100 X66.742 Y19.143
G01 F100 X67.059 Y19.495
G01 F100 X67.296 Y19.905
G01 F100 X67.442 Y20.355
G01 F100 X67.492 Y20.826
G01 F100 X67.442 Y21.298
G01 F100 X67.296 Y21.748
G01 F100 X67.059 Y22.158
G01 F100 X66.742 Y22.510
G01 F100 X66.359 Y22.789
G01 F100 X65.926 Y22.981
G01 F100 X65.463 Y23.079
G01 F100 X54.816 Y23.079
G01 F100 X54.353 Y22.981
G01 F100 X53.920 Y22.789
G01 F100 X53.553 Y22.522
G01 F100 X45.284 Y14.253
G01 F100 X38.289 Y14.253
G01 F100 X37.826 Y14.154
G01 F100 X37.393 Y13.962
G01 F100 X37.027 Y13.695
G01 F100 X32.670 Y9.339
G01 F100 X32.394 Y9.032
G01 F100 X32.157 Y8.621
G01 F100 X32.010 Y8.171
G01 F100 X31.965 Y7.740
G01 F100 X31.965 Y4.260
G01 F100 X32.010 Y3.829
G01 F100 X32.157 Y3.379
G01 F100 X32.394 Y2.969
G01 F100 X32.710 Y2.616
G01 F100 X33.094 Y2.338
G01 F100 X33.526 Y2.146
G01 F100 X33.989 Y2.047
G01 F100 X34.463 Y2.047
G01 F100 X34.926 Y2.146
G01 F100 X35.359 Y2.338
G01 F100 X35.742 Y2.616
G01 F100 X36.059 Y2.969
G01 F100 X36.296 Y3.379
G01 F100 X36.442 Y3.829
G01 F100 X36.487 Y4.260
G01 F100 X36.487 Y6.766
G01 F100 X39.468 Y9.747
G01 F100 X46.463 Y9.747
G01 F100 X46.926 Y9.846
G01 F100 X47.359 Y10.038
G01 F100 X47.726 Y10.305
G01 F100 X55.995 Y18.574
G01 F100 X57.715 Y18.574
G01 F100 X57.715 Y4.960
G01 F100 X57.760 Y4.529
G01 F100 X57.907 Y4.079
G01 F100 X58.144 Y3.669
G01 F100 X58.460 Y3.316
G01 F100 X58.844 Y3.038
G01 F100 X59.276 Y2.846
G01 F100 X59.739 Y2.747
G01 F100 X60.213 Y2.747
G01 F100 X60.676 Y2.846
G01 F100 X61.109 Y3.038
G01 F100 X61.492 Y3.316
G01 F100 X61.809 Y3.669
G01 F100 X61.976 Y3.958
G01 F100 X62.144 Y3.669
G01 F100 X62.460 Y3.316
G01 F100 X62.844 Y3.038
G01 F100 X63.276 Y2.846
G01 F100 X63.739 Y2.747
G01 F100 X68.463 Y2.747
G01 F100 X68.926 Y2.846
G01 F100 X69.359 Y3.038
G01 F100 X69.726 Y3.305
G01 F100 X76.782 Y10.361
G01 F100 X76.965 Y10.564
G01 F100 X76.965 Y9.710
G01 F100 X77.010 Y9.279
G01 F100 X77.157 Y8.829
G01 F100 X77.394 Y8.418
G01 F100 X77.670 Y8.111
G01 F100 X82.477 Y3.305
G01 F100 X82.843 Y3.038
G01 F100 X83.276 Y2.846
G01 F100 X83.739 Y2.747
G01 F100 X84.213 Y2.747
G01 F100 X84.676 Y2.846
G01 F100 X85.109 Y3.038
G01 F100 X85.492 Y3.316
G01 F100 X85.809 Y3.669
G01 F100 X86.046 Y4.079
G01 F100 X86.192 Y4.529
G01 F100 X86.242 Y5.000
G01 F100 X86.192 Y5.471
G01 F100 X86.046 Y5.921
G01 F100 X85.809 Y6.332
G01 F100 X85.532 Y6.639
G01 F100 X81.487 Y10.684
G01 F100 X81.487 Y29.880
G01 F100 X81.442 Y30.311
G01 F100 X81.296 Y30.761
G01 F100 X81.059 Y31.172
G01 F100 X80.742 Y31.524
G01 F100 X80.359 Y31.802
G01 F100 X79.926 Y31.994
G01 F100 X79.463 Y32.093
G01 F100 X78.989 Y32.093
G00 Z3.000
G00  X50.187 Y26.242
G01 F100 Z0
G01 F100 Z-0.200
G01 F100 X50.465 Y26.242
G01 F100 X50.465 Y23.271
G01 F100 X50.187 Y22.994
G01 F100 X50.187 Y26.242
G00 Z3.000
G00  X46.056 Y22.272
G01 F100 Z0
G01 F100 Z-0.200
G01 F100 X47.265 Y22.272
G01 F100 X47.265 Y22.139
G01 F100 X49.333 Y22.139
G01 F100 X46.902 Y19.708
G01 F100 X46.587 Y19.708
G01 F100 X46.587 Y20.164
G01 F100 X46.376 Y20.164
G01 F100 X46.439 Y20.272
G01 F100 X46.479 Y20.395
G01 F100 X46.507 Y20.458
G01 F100 X46.522 Y20.528
G01 F100 X46.553 Y20.623
G01 F100 X46.564 Y20.724
G01 F100 X46.582 Y20.810
G01 F100 X46.582 Y20.899
G01 F100 X46.592 Y20.990
G01 F100 X46.582 Y21.081
G01 F100 X46.582 Y21.170
G01 F100 X46.564 Y21.256
G01 F100 X46.553 Y21.357
G01 F100 X46.522 Y21.452
G01 F100 X46.507 Y21.522
G01 F100 X46.479 Y21.585
G01 F100 X46.439 Y21.708
G01 F100 X46.254 Y22.028
G01 F100 X46.045 Y22.260
G01 F100 X46.056 Y22.272
G00 Z3.000
G00  X90.592 Y17.471
G01 F100 Z0
G01 F100 Z-0.200
G01 F100 X90.282 Y17.405
G01 F100 X89.992 Y17.277
G01 F100 X89.736 Y17.091
G01 F100 X89.524 Y16.855
G01 F100 X89.366 Y16.581
G01 F100 X89.268 Y16.279
G01 F100 X89.235 Y15.964
G01 F100 X89.268 Y15.649
G01 F100 X89.366 Y15.348
G01 F100 X89.524 Y15.074
G01 F100 X89.736 Y14.838
G01 F100 X89.992 Y14.652
G01 F100 X90.282 Y14.523
G01 F100 X90.592 Y14.457
G01 F100 X95.861 Y14.457
G01 F100 X96.171 Y14.523
G01 F100 X96.460 Y14.652
G01 F100 X96.716 Y14.838
G01 F100 X96.928 Y15.074
G01 F100 X97.087 Y15.348
G01 F100 X97.184 Y15.649
G01 F100 X97.218 Y15.964
G01 F100 X97.184 Y16.279
G01 F100 X97.087 Y16.581
G01 F100 X96.928 Y16.855
G01 F100 X96.716 Y17.090
G01 F100 X96.460 Y17.277
G01 F100 X96.171 Y17.405
G01 F100 X95.861 Y17.471
G01 F100 X90.592 Y17.471
G00 Z3.000
G00  X54.989 Y14.253
G01 F100 Z0
G01 F100 Z-0.200
G01 F100 X54.526 Y14.154
G01 F100 X54.093 Y13.962
G01 F100 X53.727 Y13.695
G01 F100 X47.284 Y7.253
G01 F100 X39.739 Y7.253
G01 F100 X39.276 Y7.154
G01 F100 X38.844 Y6.962
G01 F100 X38.460 Y6.684
G01 F100 X38.144 Y6.332
G01 F100 X37.907 Y5.921
G01 F100 X37.760 Y5.471
G01 F100 X37.711 Y5.000
G01 F100 X37.760 Y4.529
G01 F100 X37.907 Y4.079
G01 F100 X38.144 Y3.669
G01 F100 X38.460 Y3.316
G01 F100 X38.844 Y3.038
G01 F100 X39.276 Y2.846
G01 F100 X39.739 Y2.747
G01 F100 X48.463 Y2.747
G01 F100 X48.926 Y2.846
G01 F100 X49.359 Y3.038
G01 F100 X49.726 Y3.305
G01 F100 X56.782 Y10.361
G01 F100 X57.059 Y10.668
G01 F100 X57.296 Y11.079
G01 F100 X57.442 Y11.529
G01 F100 X57.492 Y12.000
G01 F100 X57.442 Y12.471
G01 F100 X57.296 Y12.921
G01 F100 X57.059 Y13.332
G01 F100 X56.742 Y13.684
G01 F100 X56.359 Y13.962
G01 F100 X55.926 Y14.154
G01 F100 X55.463 Y14.253
G01 F100 X54.989 Y14.253
G00 Z3.000
G00  X92.624 Y12.734
G01 F100 Z0
G01 F100 Z-0.200
G01 F100 X91.445 Y12.483
G01 F100 X90.344 Y11.993
G01 F100 X89.368 Y11.285
G01 F100 X88.562 Y10.389
G01 F100 X87.959 Y9.345
G01 F100 X87.587 Y8.199
G01 F100 X87.461 Y7.000
G01 F100 X87.587 Y5.801
G01 F100 X87.959 Y4.655
G01 F100 X88.562 Y3.611
G01 F100 X89.368 Y2.715
G01 F100 X90.344 Y2.007
G01 F100 X91.445 Y1.517
G01 F100 X92.624 Y1.266
G01 F100 X93.829 Y1.266
G01 F100 X95.008 Y1.517
G01 F100 X96.109 Y2.007
G01 F100 X97.084 Y2.715
G01 F100 X97.891 Y3.611
G01 F100 X98.493 Y4.655
G01 F100 X98.866 Y5.801
G01 F100 X98.992 Y7.000
G01 F100 X98.866 Y8.199
G01 F100 X98.493 Y9.345
G01 F100 X97.891 Y10.389
G01 F100 X97.084 Y11.285
G01 F100 X96.109 Y11.993
G01 F100 X95.008 Y12.483
G01 F100 X93.829 Y12.734
G01 F100 X92.624 Y12.734
G00 Z3.000
G00  X6.624 Y12.734
G01 F100 Z0
G01 F100 Z-0.200
G01 F100 X5.445 Y12.483
G01 F100 X4.344 Y11.993
G01 F100 X3.368 Y11.285
G01 F100 X2.562 Y10.389
G01 F100 X1.959 Y9.345
G01 F100 X1.587 Y8.199
G01 F100 X1.461 Y7.000
G01 F100 X1.587 Y5.801
G01 F100 X1.959 Y4.655
G01 F100 X2.562 Y3.611
G01 F100 X3.368 Y2.715
G01 F100 X4.344 Y2.007
G01 F100 X5.445 Y1.517
G01 F100 X6.624 Y1.266
G01 F100 X7.829 Y1.266
G01 F100 X9.008 Y1.517
G01 F100 X10.109 Y2.007
G01 F100 X11.084 Y2.715
G01 F100 X11.891 Y3.611
G01 F100 X12.493 Y4.655
G01 F100 X12.866 Y5.801
G01 F100 X12.992 Y7.000
G01 F100 X12.866 Y8.199
G01 F100 X12.493 Y9.345
G01 F100 X11.891 Y10.389
G01 F100 X11.084 Y11.285
G01 F100 X10.109 Y11.993
G01 F100 X9.008 Y12.483
G01 F100 X7.829 Y12.734
G01 F100 X6.624 Y12.734
G00 Z3.000
G00 Z3.000
M05
M30
%