( Plastic Back drills )
( Generated by hand )
( Material Size )
( X= 100.000, Y= 70.000, Z= 2.0mm ?? )
()
G17
G21
G54
G90
M03 S1000
G00 Z3.000
(H1 hole)
G00  X0.000 Y0.000
G01 F100 Z-1.650
G00 Z3.000
(H2 hole)
G00  X0.000 Y56.000
G01 F100 Z-1.650
G00 Z3.000
(H3 hole)
G00  X86.000 Y56.000
G01 F100 Z-1.650
G00 Z3.000
(GND hole)
G00  X86.000 Y38.000
G01 F100 Z-1.650
G00 Z3.000
(AC Hole)
G00  X86.000 Y18.000
G01 F100 Z-1.650
G00 Z3.000
(H4 Hole)
G00  X86.000 Y0.000
G01 F100 Z-1.650
G00 Z3.000
M05
M30
%